VVS_PIPELINE/vvs-dcc-plugins/common/aces_1.2/luts/1.cube
LUT_3D_SIZE 8
0.000000 0.000000 0.000000
0.342824 0.000000 0.000000
0.538803 0.000000 0.000000
0.677845 0.000000 0.000000
0.780092 0.000000 0.000000
0.858029 0.000000 0.000000
0.915545 0.000000 0.000000
0.958068 0.000000 0.000396
0.000000 0.316175 0.000000
0.308971 0.300693 0.000000
0.550662 0.276829 0.000000
0.684599 0.257378 0.000000
0.779619 0.238995 0.000000
0.851712 0.221980 0.000000
0.905039 0.209647 0.000000
0.944481 0.199559 0.000000
0.000000 0.504429 0.000000
0.132963 0.497260 0.000000
0.496674 0.483954 0.000000
0.664203 0.471400 0.000000
0.769714 0.461461 0.000000
0.839941 0.454617 0.000000
0.889502 0.450136 0.000000
0.925875 0.447529 0.000000
0.000000 0.628263 0.000000
0.000000 0.622532 0.000000
0.425347 0.612608 0.000000
0.618977 0.602675 0.000000
0.740295 0.594351 0.000000
0.818117 0.588296 0.000000
0.870021 0.584332 0.000000
0.907356 0.581919 0.000000
0.000000 0.715867 0.000000
0.000000 0.710853 0.000000
0.338476 0.702519 0.000000
0.571948 0.694265 0.000000
0.704463 0.686993 0.000000
0.789822 0.681212 0.000000
0.846380 0.677195 0.000000
0.886451 0.674484 0.000000
0.000000 0.776997 0.000000
0.000000 0.772406 0.000000
0.261048 0.764400 0.000000
0.531776 0.756556 0.000000
0.675173 0.749723 0.000000
0.764883 0.744354 0.000000
0.824193 0.740482 0.000000
0.866939 0.737740 0.000000
0.000000 0.819082 0.000000
0.000000 0.814435 0.000000
0.167952 0.807204 0.000000
0.501900 0.800069 0.000000
0.653714 0.793628 0.000000
0.745840 0.788498 0.000000
0.805954 0.784714 0.000000
0.849709 0.781889 0.000000
0.000000 0.849236 0.000000
0.000000 0.844651 0.000000
0.113258 0.837540 0.000000
0.476175 0.830682 0.000000
0.633023 0.824745 0.000000
0.729395 0.820074 0.000000
0.792819 0.816627 0.000000
0.835732 0.814031 0.000000
0.000000 0.000000 0.311920
0.365855 0.000000 0.307832
0.580153 0.000000 0.306740
0.703417 0.000000 0.306706
0.794559 0.000000 0.307021
0.866177 0.000000 0.307671
0.920415 0.000000 0.308598
0.960512 0.000000 0.309781
0.000000 0.312658 0.299185
0.300231 0.300230 0.300230
0.527451 0.280940 0.300292
0.668118 0.261227 0.300617
0.769476 0.241328 0.301167
0.845077 0.225150 0.301958
0.900767 0.211052 0.302775
0.941981 0.197714 0.303804
0.000000 0.504228 0.284139
0.088174 0.496985 0.285701
0.491775 0.483790 0.286881
0.654489 0.472105 0.287892
0.755339 0.463549 0.288801
0.826124 0.457215 0.289741
0.877619 0.452925 0.290857
0.917163 0.449642 0.291882
0.000000 0.628058 0.270207
0.003770 0.622315 0.272134
0.416038 0.612287 0.273624
0.614836 0.602508 0.275206
0.735844 0.594419 0.276861
0.811521 0.588854 0.278388
0.862007 0.585397 0.279812
0.899052 0.583335 0.281205
0.000000 0.715861 0.258375
0.000000 0.710930 0.260457
0.332810 0.702338 0.262327
0.566675 0.693804 0.264387
0.701615 0.686367 0.266522
0.786495 0.680743 0.268703
0.841900 0.676996 0.270750
0.881174 0.674631 0.272693
0.000000 0.776704 0.250625
0.000000 0.771622 0.253063
0.200510 0.763670 0.255229
0.527199 0.756010 0.257422
0.671922 0.749231 0.259685
0.762486 0.743818 0.262037
0.820929 0.740068 0.264528
0.863032 0.737502 0.266993
0.000000 0.819124 0.246598
0.000000 0.814344 0.249136
0.188824 0.806720 0.251427
0.496955 0.799474 0.253692
0.647890 0.793092 0.256086
0.741874 0.788060 0.258706
0.803381 0.784163 0.261484
0.846184 0.781444 0.264235
0.000000 0.849063 0.246138
0.000000 0.844322 0.248551
0.091778 0.837291 0.250764
0.465820 0.830476 0.252989
0.626538 0.824617 0.255372
0.723831 0.820011 0.257864
0.789414 0.816432 0.260661
0.832348 0.813677 0.263675
0.000000 0.000000 0.501220
0.349840 0.000000 0.498092
0.583497 0.000000 0.496029
0.729604 0.000000 0.495400
0.823924 0.000000 0.495377
0.887552 0.000000 0.495616
0.933583 0.000000 0.496025
0.968600 0.000000 0.496567
0.000000 0.312030 0.491994
0.277971 0.298769 0.492037
0.548682 0.272569 0.491688
0.695595 0.249278 0.491574
0.786552 0.231062 0.491571
0.853404 0.216783 0.491778
0.903510 0.202723 0.492198
0.942876 0.192730 0.492759
0.000000 0.503496 0.482106
0.086252 0.496221 0.482854
0.483209 0.483209 0.483209
0.635376 0.472997 0.483426
0.740616 0.464359 0.483715
0.815820 0.457485 0.484158
0.870214 0.452763 0.484758
0.910998 0.449124 0.485449
0.000000 0.627424 0.474195
0.000000 0.621623 0.475157
0.400441 0.611677 0.475810
0.607651 0.602069 0.476525
0.727150 0.594390 0.477188
0.798660 0.589613 0.477762
0.849276 0.586291 0.478471
0.887061 0.584246 0.479232
0.000000 0.715407 0.468166
0.000000 0.710041 0.469190
0.303323 0.701358 0.470002
0.559715 0.692960 0.470841
0.695830 0.685568 0.471819
0.780663 0.680031 0.472822
0.834347 0.676674 0.473786
0.872168 0.674762 0.474803
0.000000 0.775844 0.464428
0.000000 0.770902 0.465523
0.195421 0.762893 0.466398
0.519640 0.755311 0.467361
0.664903 0.748629 0.468405
0.755915 0.743276 0.469571
0.816098 0.739415 0.470741
0.856945 0.737090 0.472008
0.000000 0.818527 0.462555
0.000000 0.813401 0.463752
0.071684 0.805992 0.464706
0.483819 0.798666 0.465712
0.639322 0.792347 0.466807
0.735315 0.787397 0.468022
0.798406 0.783466 0.469324
0.841082 0.780773 0.470659
0.000000 0.848713 0.462354
0.000000 0.844137 0.463431
0.146104 0.836970 0.464389
0.451472 0.830240 0.465354
0.618794 0.824252 0.466464
0.716909 0.819477 0.467730
0.782935 0.815831 0.469068
0.827878 0.813006 0.470427
0.000000 0.000000 0.625764
0.333601 0.000000 0.622689
0.575016 0.000000 0.620020
0.725776 0.000000 0.618767
0.829700 0.000000 0.618282
0.899588 0.000000 0.618250
0.946269 0.000000 0.618446
0.978064 0.000000 0.618733
0.000000 0.310115 0.617104
0.253004 0.297198 0.616500
0.539696 0.271781 0.615440
0.699159 0.245116 0.614933
0.805706 0.219168 0.614757
0.873760 0.198744 0.614812
0.918799 0.186602 0.614946
0.952149 0.180353 0.615115
0.000000 0.502713 0.607925
0.061603 0.495370 0.608107
0.471290 0.482331 0.607896
0.650237 0.469049 0.607836
0.760308 0.458718 0.607873
0.827109 0.452843 0.607956
0.875891 0.449231 0.608184
0.912314 0.446389 0.608502
0.000000 0.626864 0.600937
0.000000 0.621108 0.601347
0.384088 0.611133 0.601464
0.601644 0.601644 0.601644
0.711142 0.595158 0.601788
0.788361 0.589864 0.602021
0.841503 0.586187 0.602390
0.880809 0.583981 0.602836
0.000000 0.714517 0.595704
0.000000 0.709372 0.596202
0.284410 0.700630 0.596472
0.552199 0.692358 0.596816
0.689191 0.685062 0.597275
0.770121 0.680124 0.597718
0.824764 0.676828 0.598169
0.860919 0.675353 0.598688
0.000000 0.775225 0.592292
0.000000 0.770097 0.592894
0.206744 0.762298 0.593257
0.510501 0.754698 0.593688
0.658204 0.748097 0.594213
0.749894 0.742850 0.594864
0.809530 0.739128 0.595509
0.850001 0.736920 0.596237
0.000000 0.817599 0.590513
0.000000 0.812817 0.591095
0.125019 0.805231 0.591535
0.472055 0.797981 0.592015
0.632233 0.791662 0.592594
0.728921 0.786762 0.593296
0.792673 0.782963 0.594080
0.836044 0.780215 0.594891
0.000000 0.848315 0.589798
0.000000 0.843719 0.590358
0.113479 0.836623 0.590819
0.445708 0.829749 0.591316
0.613863 0.823625 0.591927
0.711164 0.818870 0.592679
0.776893 0.815277 0.593505
0.823814 0.812391 0.594356
0.000000 0.000000 0.714271
0.317323 0.000000 0.711275
0.566923 0.000000 0.708287
0.720624 0.000000 0.706581
0.826774 0.000000 0.705741
0.900307 0.000000 0.705395
0.949964 0.000000 0.705360
0.980864 0.000000 0.705547
0.000000 0.309512 0.705779
0.217440 0.296502 0.704843
0.531522 0.270211 0.703441
0.693605 0.242419 0.702561
0.804153 0.214438 0.702039
0.878354 0.188287 0.701834
0.927738 0.166847 0.701852
0.961551 0.162089 0.701967
0.000000 0.501900 0.696774
0.049080 0.494714 0.696572
0.461357 0.481637 0.695977
0.643489 0.468651 0.695603
0.762377 0.456947 0.695427
0.840275 0.448136 0.695453
0.890093 0.443513 0.695555
0.923130 0.440591 0.695657
0.000000 0.626277 0.689955
0.000000 0.620468 0.690013
0.376803 0.610688 0.689783
0.593752 0.600927 0.689612
0.721910 0.592443 0.689611
0.798638 0.587004 0.689692
0.849236 0.583568 0.689821
0.883626 0.582230 0.689941
0.000000 0.713935 0.684789
0.000000 0.708682 0.684953
0.277575 0.700262 0.684886
0.546086 0.692056 0.684843
0.684945 0.684945 0.684945
0.760580 0.680595 0.685078
0.815745 0.677289 0.685319
0.855028 0.675505 0.685557
0.000000 0.774506 0.681350
0.000000 0.769692 0.681578
0.150710 0.761936 0.681546
0.500788 0.754373 0.681646
0.652308 0.747813 0.681819
0.745823 0.742705 0.682093
0.801362 0.739433 0.682456
0.841783 0.737294 0.682827
0.000000 0.817070 0.679251
0.000000 0.812184 0.679523
0.126026 0.804684 0.679614
0.464197 0.797511 0.679760
0.627076 0.791170 0.679976
0.724240 0.786320 0.680288
0.787778 0.782736 0.680728
0.831304 0.780011 0.681248
0.000000 0.848091 0.678168
0.000000 0.843184 0.678430
0.022778 0.836112 0.678571
0.441336 0.829179 0.678726
0.609387 0.823095 0.678989
0.707469 0.818277 0.679355
0.772479 0.814736 0.679766
0.819069 0.811980 0.680375
0.000000 0.000000 0.776677
0.303222 0.000000 0.773677
0.560956 0.000000 0.770475
0.715877 0.000000 0.768538
0.823609 0.000000 0.767372
0.897827 0.000000 0.766734
0.949221 0.000000 0.766460
0.980184 0.000000 0.766435
0.000000 0.308588 0.768213
0.216691 0.295067 0.767083
0.525917 0.268724 0.765308
0.688298 0.241752 0.764107
0.799136 0.213270 0.763302
0.875725 0.184359 0.762869
0.928417 0.164537 0.762705
0.964358 0.148438 0.762704
0.000000 0.501585 0.759069
0.032527 0.494388 0.758614
0.451174 0.481281 0.757756
0.638321 0.468336 0.757082
0.757779 0.456549 0.756652
0.838493 0.447172 0.756466
0.894162 0.441015 0.756437
0.930543 0.436247 0.756444
0.000000 0.625840 0.752179
0.000000 0.620081 0.751948
0.369688 0.610337 0.751446
0.587879 0.600470 0.751006
0.717491 0.592015 0.750746
0.801898 0.585523 0.750681
0.857463 0.580845 0.750720
0.895652 0.578432 0.750777
0.000000 0.713308 0.746900
0.000000 0.708237 0.746805
0.265741 0.699922 0.746432
0.538726 0.691655 0.746150
0.680287 0.684592 0.745984
0.768125 0.679137 0.745993
0.822673 0.675750 0.746064
0.861645 0.673871 0.746141
0.000000 0.774228 0.743207
0.000000 0.769313 0.743174
0.100943 0.761543 0.742925
0.492799 0.754046 0.742748
0.647799 0.747491 0.742650
0.742648 0.742648 0.742648
0.794612 0.739761 0.742752
0.835611 0.737600 0.742900
0.000000 0.816420 0.740857
0.000000 0.811642 0.740840
0.097710 0.804240 0.740677
0.455124 0.797094 0.740539
0.621591 0.790803 0.740509
0.720787 0.785866 0.740575
0.784191 0.782456 0.740754
0.825229 0.780066 0.740971
0.000000 0.847471 0.739357
0.000000 0.842833 0.739397
0.074902 0.835568 0.739237
0.427869 0.828679 0.739139
0.604006 0.822726 0.739143
0.704707 0.817827 0.739270
0.768801 0.814310 0.739440
0.815428 0.811645 0.739767
0.000000 0.000000 0.820137
0.292281 0.000000 0.817219
0.556850 0.000000 0.813805
0.711676 0.000000 0.811727
0.819421 0.000000 0.810384
0.894728 0.000000 0.809566
0.946893 0.000000 0.809102
0.982176 0.000000 0.808912
0.000000 0.307609 0.811696
0.180800 0.294881 0.810324
0.518340 0.269126 0.808429
0.684507 0.241603 0.807030
0.795873 0.212832 0.806071
0.872544 0.184690 0.805499
0.926831 0.168512 0.805175
0.963791 0.129901 0.804928
0.000000 0.501572 0.802425
0.021820 0.494477 0.801797
0.443471 0.480913 0.800767
0.635788 0.467618 0.799915
0.755666 0.455721 0.799310
0.835694 0.446624 0.798938
0.891764 0.440364 0.798753
0.930622 0.434825 0.798651
0.000000 0.625571 0.795422
0.000000 0.619912 0.795043
0.361924 0.610003 0.794318
0.583103 0.600294 0.793739
0.714629 0.591842 0.793304
0.799652 0.585529 0.793054
0.856399 0.580400 0.792995
0.897935 0.577111 0.792993
0.000000 0.713390 0.789995
0.000000 0.708277 0.789728
0.238999 0.699950 0.789216
0.530804 0.691717 0.788782
0.676229 0.684503 0.788464
0.766304 0.679051 0.788273
0.824985 0.674938 0.788262
0.866906 0.672567 0.788288
0.000000 0.773911 0.786145
0.000000 0.769292 0.785938
0.161429 0.761569 0.785524
0.483037 0.754095 0.785167
0.641938 0.747548 0.784933
0.739392 0.742502 0.784812
0.799905 0.738778 0.784803
0.840541 0.736637 0.784853
0.000000 0.816234 0.783555
0.000000 0.811349 0.783409
0.095470 0.804042 0.783039
0.448422 0.796958 0.782733
0.615793 0.790774 0.782545
0.717186 0.785799 0.782479
0.782447 0.782447 0.782446
0.820496 0.780296 0.782535
0.000000 0.847137 0.781814
0.000000 0.842343 0.781673
0.087314 0.835186 0.781347
0.420851 0.828313 0.781083
0.598639 0.822401 0.780931
0.700229 0.817647 0.780905
0.766429 0.814004 0.780939
0.812807 0.811447 0.781071
0.000000 0.000000 0.851653
0.287756 0.000000 0.848737
0.551632 0.000000 0.845332
0.709839 0.000000 0.843077
0.818160 0.000000 0.841649
0.892336 0.000000 0.840733
0.945118 0.000000 0.840203
0.981229 0.000000 0.839885
0.000000 0.308233 0.843214
0.163077 0.294673 0.841781
0.516308 0.267887 0.839786
0.682461 0.238921 0.838317
0.794205 0.208773 0.837233
0.871085 0.176996 0.836488
0.923921 0.163770 0.836076
0.961893 0.139855 0.835824
0.000000 0.500921 0.833950
0.055626 0.493473 0.833241
0.441055 0.480307 0.832101
0.631808 0.467395 0.831143
0.752935 0.455613 0.830408
0.833920 0.446551 0.829915
0.889416 0.440639 0.829632
0.929168 0.435320 0.829488
0.000000 0.625735 0.826849
0.005108 0.620209 0.826377
0.342585 0.610078 0.825599
0.577727 0.600226 0.824917
0.711742 0.591547 0.824400
0.797754 0.585166 0.824069
0.854943 0.579896 0.823871
0.897121 0.576540 0.823826
0.000000 0.713147 0.821375
0.000000 0.708261 0.821038
0.218289 0.699746 0.820415
0.526335 0.691566 0.819872
0.671824 0.684532 0.819472
0.764186 0.679136 0.819217
0.823379 0.674764 0.819085
0.867358 0.671685 0.819072
0.000000 0.774099 0.817420
0.000000 0.769101 0.817140
0.174031 0.761420 0.816615
0.482631 0.753962 0.816161
0.638519 0.747531 0.815837
0.736280 0.742525 0.815645
0.797904 0.738895 0.815550
0.842903 0.736005 0.815551
0.000000 0.815946 0.814691
0.000000 0.811376 0.814447
0.042840 0.804040 0.814007
0.453751 0.796963 0.813615
0.615502 0.790674 0.813320
0.713368 0.785785 0.813187
0.779910 0.782272 0.813129
0.824528 0.779499 0.813136
0.000000 0.846969 0.812811
0.000000 0.842115 0.812587
0.083618 0.835052 0.812194
0.410983 0.828183 0.811838
0.595620 0.822222 0.811566
0.697760 0.817590 0.811432
0.764298 0.813911 0.811420
0.811411 0.811411 0.811411
