VVS_PIPELINE/vvs-dcc-plugins/common/aces_1.2/luts/1.cube
LUT_3D_SIZE 64
0.000000 0.000000 0.000000
0.063182 0.000000 0.000000
0.114263 0.000000 0.000000
0.157366 0.000000 0.000000
0.195741 0.000000 0.000000
0.230710 0.000000 0.000000
0.261613 0.000000 0.000000
0.289534 0.000000 0.000000
0.316904 0.000000 0.000000
0.342824 0.000000 0.000000
0.367326 0.000000 0.000000
0.391853 0.000000 0.000000
0.414800 0.000000 0.000000
0.437638 0.000000 0.000000
0.459621 0.000000 0.000000
0.480216 0.000000 0.000000
0.500960 0.000000 0.000000
0.520440 0.000000 0.000000
0.538803 0.000000 0.000000
0.557006 0.000000 0.000000
0.574300 0.000000 0.000000
0.590745 0.000000 0.000000
0.606521 0.000000 0.000000
0.621970 0.000000 0.000000
0.636761 0.000000 0.000000
0.650943 0.000000 0.000000
0.664570 0.000000 0.000000
0.677845 0.000000 0.000000
0.690727 0.000000 0.000000
0.703153 0.000000 0.000000
0.715155 0.000000 0.000000
0.726763 0.000000 0.000000
0.738017 0.000000 0.000000
0.749012 0.000000 0.000000
0.759679 0.000000 0.000000
0.770034 0.000000 0.000000
0.780092 0.000000 0.000000
0.789875 0.000000 0.000000
0.799396 0.000000 0.000000
0.808533 0.000000 0.000000
0.817293 0.000000 0.000000
0.825837 0.000000 0.000000
0.834175 0.000000 0.000000
0.842310 0.000000 0.000000
0.850259 0.000000 0.000000
0.858029 0.000000 0.000000
0.865628 0.000000 0.000000
0.872721 0.000000 0.000000
0.879218 0.000000 0.000000
0.885581 0.000000 0.000000
0.891815 0.000000 0.000000
0.897925 0.000000 0.000000
0.903911 0.000000 0.000000
0.909783 0.000000 0.000000
0.915545 0.000000 0.000000
0.921201 0.000000 0.000000
0.926756 0.000000 0.000000
0.931663 0.000000 0.000057
0.936254 0.000000 0.000137
0.940766 0.000000 0.000216
0.945203 0.000000 0.000293
0.949566 0.000000 0.000369
0.953853 0.000000 0.000396
0.958068 0.000000 0.000396
0.000000 0.033118 0.000000
0.032023 0.030470 0.000000
0.102219 0.024422 0.000000
0.153587 0.016571 0.000000
0.195277 0.007687 0.000000
0.230807 0.001891 0.000000
0.261904 0.000000 0.000000
0.290279 0.000000 0.000000
0.317349 0.000000 0.000000
0.343612 0.000000 0.000000
0.367859 0.000000 0.000000
0.392709 0.000000 0.000000
0.415430 0.000000 0.000000
0.438585 0.000000 0.000000
0.460381 0.000000 0.000000
0.481165 0.000000 0.000000
0.501772 0.000000 0.000000
0.521136 0.000000 0.000000
0.539548 0.000000 0.000000
0.557665 0.000000 0.000000
0.574858 0.000000 0.000000
0.591216 0.000000 0.000000
0.607011 0.000000 0.000000
0.622387 0.000000 0.000000
0.637100 0.000000 0.000000
0.651214 0.000000 0.000000
0.664778 0.000000 0.000000
0.678053 0.000000 0.000000
0.690885 0.000000 0.000000
0.703269 0.000000 0.000000
0.715234 0.000000 0.000000
0.726808 0.000000 0.000000
0.738045 0.000000 0.000000
0.748997 0.000000 0.000000
0.759622 0.000000 0.000000
0.769941 0.000000 0.000000
0.779969 0.000000 0.000000
0.789722 0.000000 0.000000
0.799216 0.000000 0.000000
0.808279 0.000000 0.000000
0.817028 0.000000 0.000000
0.825560 0.000000 0.000000
0.833887 0.000000 0.000000
0.842007 0.000000 0.000000
0.849938 0.000000 0.000000
0.857690 0.000000 0.000000
0.865272 0.000000 0.000000
0.872193 0.000000 0.000000
0.878684 0.000000 0.000000
0.885042 0.000000 0.000000
0.891271 0.000000 0.000000
0.897376 0.000000 0.000000
0.903363 0.000000 0.000000
0.909236 0.000000 0.000000
0.914999 0.000000 0.000000
0.920656 0.000000 0.000000
0.926194 0.000000 0.000000
0.930935 0.000000 0.000000
0.935520 0.000000 0.000000
0.940026 0.000000 0.000000
0.944455 0.000000 0.000000
0.948807 0.000000 0.000000
0.953088 0.000000 0.000000
0.957301 0.000000 0.000000
0.000000 0.086432 0.000000
0.001466 0.084952 0.000000
0.084094 0.081288 0.000000
0.144925 0.075994 0.000000
0.192545 0.069559 0.000000
0.230495 0.062024 0.000000
0.262980 0.053493 0.000000
0.292329 0.044287 0.000000
0.319261 0.034274 0.000000
0.345922 0.022153 0.000000
0.370453 0.015039 0.000000
0.394949 0.006296 0.000000
0.417548 0.000000 0.000000
0.440718 0.000000 0.000000
0.462215 0.000000 0.000000
0.483060 0.000000 0.000000
0.503414 0.000000 0.000000
0.522571 0.000000 0.000000
0.540958 0.000000 0.000000
0.558865 0.000000 0.000000
0.575869 0.000000 0.000000
0.592067 0.000000 0.000000
0.607824 0.000000 0.000000
0.623074 0.000000 0.000000
0.637664 0.000000 0.000000
0.651665 0.000000 0.000000
0.665135 0.000000 0.000000
0.678351 0.000000 0.000000
0.691092 0.000000 0.000000
0.703393 0.000000 0.000000
0.715283 0.000000 0.000000
0.726785 0.000000 0.000000
0.737988 0.000000 0.000000
0.748899 0.000000 0.000000
0.759487 0.000000 0.000000
0.769770 0.000000 0.000000
0.779760 0.000000 0.000000
0.789461 0.000000 0.000000
0.798904 0.000000 0.000000
0.807873 0.000000 0.000000
0.816586 0.000000 0.000000
0.825083 0.000000 0.000000
0.833373 0.000000 0.000000
0.841468 0.000000 0.000000
0.849378 0.000000 0.000000
0.857111 0.000000 0.000000
0.864673 0.000000 0.000000
0.871423 0.000000 0.000000
0.877905 0.000000 0.000000
0.884252 0.000000 0.000000
0.890473 0.000000 0.000000
0.896570 0.000000 0.000000
0.902533 0.000000 0.000000
0.908377 0.000000 0.000000
0.914111 0.000000 0.000000
0.919739 0.000000 0.000000
0.925184 0.000000 0.000000
0.929845 0.000000 0.000000
0.934425 0.000000 0.000000
0.938926 0.000000 0.000000
0.943351 0.000000 0.000000
0.947703 0.000000 0.000000
0.951984 0.000000 0.000000
0.956196 0.000000 0.000000
0.000000 0.131342 0.000000
0.000000 0.130341 0.000000
0.053789 0.128011 0.000000
0.128554 0.124378 0.000000
0.181958 0.119400 0.000000
0.224499 0.113876 0.000000
0.260688 0.108119 0.000000
0.292842 0.102308 0.000000
0.321194 0.096248 0.000000
0.348388 0.089475 0.000000
0.373554 0.082329 0.000000
0.398006 0.074610 0.000000
0.420862 0.064482 0.000000
0.443704 0.054837 0.000000
0.464915 0.045934 0.000000
0.485792 0.033471 0.000000
0.505842 0.020259 0.000000
0.524715 0.008576 0.000000
0.542980 0.000917 0.000000
0.560637 0.001560 0.000000
0.577412 0.002196 0.000000
0.593390 0.002823 0.000000
0.609010 0.001663 0.000000
0.624036 0.000155 0.000000
0.638482 0.000000 0.000000
0.652354 0.000000 0.000000
0.665758 0.000000 0.000000
0.678857 0.000000 0.000000
0.691487 0.000000 0.000000
0.703682 0.000000 0.000000
0.715469 0.000000 0.000000
0.726879 0.000000 0.000000
0.738034 0.000000 0.000000
0.748858 0.000000 0.000000
0.759361 0.000000 0.000000
0.769563 0.000000 0.000000
0.779480 0.000000 0.000000
0.789127 0.000000 0.000000
0.798497 0.000000 0.000000
0.807387 0.000000 0.000000
0.816054 0.000000 0.000000
0.824509 0.000000 0.000000
0.832761 0.000000 0.000000
0.840823 0.000000 0.000000
0.848703 0.000000 0.000000
0.856405 0.000000 0.000000
0.863909 0.000000 0.000000
0.870509 0.000000 0.000000
0.876969 0.000000 0.000000
0.883298 0.000000 0.000000
0.889498 0.000000 0.000000
0.895572 0.000000 0.000000
0.901508 0.000000 0.000000
0.907330 0.000000 0.000000
0.913044 0.000000 0.000000
0.918652 0.000000 0.000000
0.923922 0.000000 0.000000
0.928570 0.000000 0.000000
0.933138 0.000000 0.000000
0.937627 0.000000 0.000000
0.942040 0.000000 0.000000
0.946379 0.000000 0.000000
0.950643 0.000000 0.000000
0.954839 0.000000 0.000000
0.000000 0.170560 0.000000
0.000000 0.169767 0.000000
0.007639 0.167764 0.000000
0.102638 0.164433 0.000000
0.164573 0.160531 0.000000
0.212529 0.156202 0.000000
0.253122 0.151643 0.000000
0.289075 0.146992 0.000000
0.319922 0.141996 0.000000
0.349131 0.137258 0.000000
0.375425 0.131768 0.000000
0.400482 0.126700 0.000000
0.424036 0.120723 0.000000
0.446777 0.114543 0.000000
0.467938 0.109160 0.000000
0.488912 0.102231 0.000000
0.508706 0.094851 0.000000
0.527354 0.088052 0.000000
0.545480 0.081896 0.000000
0.562852 0.071651 0.000000
0.579386 0.060082 0.000000
0.595146 0.049242 0.000000
0.610626 0.039850 0.000000
0.625441 0.031016 0.000000
0.639675 0.026053 0.000000
0.653387 0.026072 0.000000
0.666689 0.023602 0.000000
0.679638 0.018269 0.000000
0.692127 0.013174 0.000000
0.704188 0.008300 0.000000
0.715849 0.003631 0.000000
0.727144 0.000000 0.000000
0.738220 0.000000 0.000000
0.748952 0.000000 0.000000
0.759369 0.000000 0.000000
0.769489 0.000000 0.000000
0.779327 0.000000 0.000000
0.788900 0.000000 0.000000
0.798143 0.000000 0.000000
0.806960 0.000000 0.000000
0.815558 0.000000 0.000000
0.823945 0.000000 0.000000
0.832150 0.000000 0.000000
0.840166 0.000000 0.000000
0.847999 0.000000 0.000000
0.855658 0.000000 0.000000
0.862961 0.000000 0.000000
0.869525 0.000000 0.000000
0.875952 0.000000 0.000000
0.882247 0.000000 0.000000
0.888415 0.000000 0.000000
0.894462 0.000000 0.000000
0.900392 0.000000 0.000000
0.906209 0.000000 0.000000
0.911919 0.000000 0.000000
0.917503 0.000000 0.000000
0.922587 0.000000 0.000000
0.927210 0.000000 0.000000
0.931752 0.000000 0.000000
0.936217 0.000000 0.000000
0.940606 0.000000 0.000000
0.944922 0.000000 0.000000
0.949168 0.000000 0.000000
0.953346 0.000000 0.000000
0.000000 0.204347 0.000000
0.000000 0.203444 0.000000
0.001246 0.201607 0.000000
0.061772 0.199037 0.000000
0.143798 0.195933 0.000000
0.197705 0.192439 0.000000
0.241537 0.188729 0.000000
0.281140 0.184847 0.000000
0.314813 0.180532 0.000000
0.346020 0.176512 0.000000
0.374552 0.171925 0.000000
0.401159 0.167782 0.000000
0.425809 0.163014 0.000000
0.449081 0.158528 0.000000
0.470869 0.154569 0.000000
0.491884 0.149691 0.000000
0.511539 0.145043 0.000000
0.530068 0.140777 0.000000
0.548184 0.136620 0.000000
0.565322 0.130674 0.000000
0.581622 0.125130 0.000000
0.597250 0.120002 0.000000
0.612503 0.115392 0.000000
0.627114 0.110511 0.000000
0.641191 0.101601 0.000000
0.654714 0.093162 0.000000
0.667881 0.086325 0.000000
0.680648 0.080448 0.000000
0.692965 0.074880 0.000000
0.704863 0.069599 0.000000
0.716405 0.065462 0.000000
0.727627 0.061398 0.000000
0.738596 0.052219 0.000000
0.749235 0.043383 0.000000
0.759565 0.034869 0.000000
0.769601 0.026658 0.000000
0.779337 0.020220 0.000000
0.788809 0.014206 0.000000
0.797893 0.007719 0.000000
0.806628 0.004720 0.000000
0.815167 0.005909 0.000000
0.823499 0.007089 0.000000
0.831632 0.008260 0.000000
0.839577 0.009423 0.000000
0.847341 0.010578 0.000000
0.854933 0.011724 0.000000
0.862017 0.011335 0.000000
0.868525 0.009077 0.000000
0.874898 0.006880 0.000000
0.881140 0.004742 0.000000
0.887257 0.002662 0.000000
0.893253 0.000635 0.000000
0.899144 0.000000 0.000000
0.904927 0.000000 0.000000
0.910603 0.000000 0.000000
0.916175 0.000000 0.000000
0.921103 0.000000 0.000000
0.925727 0.000000 0.000000
0.930271 0.000000 0.000000
0.934738 0.000000 0.000000
0.939129 0.000000 0.000000
0.943448 0.000000 0.000000
0.947696 0.000000 0.000000
0.951859 0.000000 0.000000
0.000000 0.234663 0.000000
0.000000 0.233942 0.000000
0.000000 0.232473 0.000000
0.022329 0.230439 0.000000
0.119008 0.227951 0.000000
0.180030 0.225061 0.000000
0.227748 0.221882 0.000000
0.269433 0.218561 0.000000
0.306785 0.214953 0.000000
0.339207 0.211351 0.000000
0.370754 0.207436 0.000000
0.398606 0.203732 0.000000
0.425054 0.199687 0.000000
0.449869 0.196008 0.000000
0.472386 0.192168 0.000000
0.493677 0.188285 0.000000
0.513684 0.184752 0.000000
0.532629 0.181632 0.000000
0.550555 0.177557 0.000000
0.567566 0.173785 0.000000
0.583754 0.170285 0.000000
0.599356 0.167037 0.000000
0.614478 0.163188 0.000000
0.628940 0.158706 0.000000
0.642814 0.154488 0.000000
0.656147 0.150512 0.000000
0.669172 0.146986 0.000000
0.681757 0.143694 0.000000
0.693939 0.138975 0.000000
0.705741 0.133119 0.000000
0.717156 0.127534 0.000000
0.728248 0.122574 0.000000
0.739067 0.118515 0.000000
0.749563 0.114646 0.000000
0.759755 0.110956 0.000000
0.769660 0.107434 0.000000
0.779330 0.101955 0.000000
0.788764 0.095408 0.000000
0.797757 0.088101 0.000000
0.806438 0.080614 0.000000
0.814903 0.073386 0.000000
0.823164 0.066400 0.000000
0.831230 0.059646 0.000000
0.839111 0.053111 0.000000
0.846786 0.047176 0.000000
0.854281 0.041599 0.000000
0.861117 0.038554 0.000000
0.867568 0.038370 0.000000
0.873892 0.038631 0.000000
0.880086 0.038937 0.000000
0.886157 0.039284 0.000000
0.892108 0.039672 0.000000
0.897944 0.040098 0.000000
0.903670 0.040560 0.000000
0.909290 0.041057 0.000000
0.914807 0.041586 0.000000
0.919536 0.035383 0.000000
0.924117 0.028713 0.000000
0.928620 0.022194 0.000000
0.933045 0.015820 0.000000
0.937397 0.009587 0.000000
0.941676 0.003491 0.000000
0.945888 0.000000 0.000000
0.950037 0.000000 0.000000
0.000000 0.262900 0.000000
0.000000 0.262335 0.000000
0.000000 0.261184 0.000000
0.011187 0.259445 0.000000
0.075477 0.257359 0.000000
0.158187 0.254992 0.000000
0.212613 0.252443 0.000000
0.255443 0.249533 0.000000
0.296308 0.246459 0.000000
0.330822 0.243226 0.000000
0.364577 0.239928 0.000000
0.393161 0.236503 0.000000
0.422374 0.233228 0.000000
0.447911 0.229877 0.000000
0.471370 0.226531 0.000000
0.493955 0.223442 0.000000
0.514692 0.220380 0.000000
0.533588 0.217077 0.000000
0.551853 0.213959 0.000000
0.569195 0.211074 0.000000
0.585606 0.208186 0.000000
0.601154 0.204722 0.000000
0.616168 0.201486 0.000000
0.630553 0.198452 0.000000
0.644358 0.195603 0.000000
0.657615 0.193095 0.000000
0.670554 0.189654 0.000000
0.683025 0.186268 0.000000
0.695061 0.183063 0.000000
0.706694 0.180027 0.000000
0.717947 0.177148 0.000000
0.728902 0.174559 0.000000
0.739568 0.172214 0.000000
0.749977 0.168113 0.000000
0.760088 0.164108 0.000000
0.769916 0.160273 0.000000
0.779475 0.156598 0.000000
0.788781 0.153075 0.000000
0.797571 0.150445 0.000000
0.806108 0.148016 0.000000
0.814435 0.145696 0.000000
0.822561 0.143477 0.000000
0.830545 0.138116 0.000000
0.838364 0.131700 0.000000
0.846007 0.125493 0.000000
0.853482 0.119487 0.000000
0.860147 0.116743 0.000000
0.866556 0.114661 0.000000
0.872832 0.112679 0.000000
0.878982 0.110794 0.000000
0.885008 0.109000 0.000000
0.890917 0.107294 0.000000
0.896713 0.105672 0.000000
0.902400 0.104130 0.000000
0.907985 0.102804 0.000000
0.913405 0.102117 0.000000
0.918066 0.094982 0.000000
0.922645 0.088006 0.000000
0.927112 0.082704 0.000000
0.931495 0.077938 0.000000
0.935803 0.073307 0.000000
0.940041 0.068806 0.000000
0.944209 0.064428 0.000000
0.948311 0.060169 0.000000
0.000000 0.289992 0.000000
0.000000 0.289418 0.000000
0.000000 0.288252 0.000000
0.000000 0.286727 0.000000
0.042584 0.284828 0.000000
0.127229 0.282617 0.000000
0.192564 0.280342 0.000000
0.242138 0.278066 0.000000
0.283364 0.275260 0.000000
0.321653 0.272638 0.000000
0.355417 0.269553 0.000000
0.387374 0.266791 0.000000
0.416865 0.263728 0.000000
0.443571 0.260865 0.000000
0.469383 0.258154 0.000000
0.492072 0.255205 0.000000
0.513049 0.252430 0.000000
0.533261 0.249813 0.000000
0.552537 0.247291 0.000000
0.569690 0.244435 0.000000
0.586025 0.241785 0.000000
0.601942 0.239295 0.000000
0.617236 0.236971 0.000000
0.631735 0.234479 0.000000
0.645409 0.231632 0.000000
0.658615 0.228974 0.000000
0.671489 0.226527 0.000000
0.683904 0.224221 0.000000
0.695890 0.222046 0.000000
0.707468 0.219633 0.000000
0.718657 0.216554 0.000000
0.729572 0.213815 0.000000
0.740180 0.211270 0.000000
0.750476 0.208847 0.000000
0.760477 0.206538 0.000000
0.770199 0.204337 0.000000
0.779658 0.202238 0.000000
0.788857 0.199658 0.000000
0.797580 0.196879 0.000000
0.806039 0.194250 0.000000
0.814289 0.191730 0.000000
0.822340 0.189314 0.000000
0.830203 0.186996 0.000000
0.837886 0.184772 0.000000
0.845395 0.182638 0.000000
0.852701 0.180624 0.000000
0.859130 0.179380 0.000000
0.865422 0.178199 0.000000
0.871632 0.175556 0.000000
0.877725 0.172685 0.000000
0.883696 0.169914 0.000000
0.889551 0.167234 0.000000
0.895294 0.164646 0.000000
0.900929 0.162144 0.000000
0.906459 0.159723 0.000000
0.911650 0.157829 0.000000
0.916244 0.156941 0.000000
0.920757 0.156103 0.000000
0.925192 0.155312 0.000000
0.929552 0.154567 0.000000
0.933839 0.153866 0.000000
0.938055 0.153207 0.000000
0.942211 0.150998 0.000000
0.946313 0.146341 0.000000
0.000000 0.316175 0.000000
0.000000 0.315714 0.000000
0.000000 0.314782 0.000000
0.000000 0.313472 0.000000
0.023301 0.311855 0.000000
0.088184 0.310008 0.000000
0.171116 0.307998 0.000000
0.222973 0.305654 0.000000
0.269622 0.303318 0.000000
0.308971 0.300693 0.000000
0.346284 0.298283 0.000000
0.378551 0.295382 0.000000
0.410187 0.292702 0.000000
0.438424 0.290085 0.000000
0.464213 0.287222 0.000000
0.488510 0.284599 0.000000
0.511254 0.282176 0.000000
0.531416 0.279409 0.000000
0.550662 0.276829 0.000000
0.568940 0.274472 0.000000
0.586322 0.272432 0.000000
0.602303 0.270041 0.000000
0.617440 0.267754 0.000000
0.631949 0.265622 0.000000
0.645879 0.263632 0.000000
0.659381 0.261781 0.000000
0.672301 0.259670 0.000000
0.684599 0.257378 0.000000
0.696475 0.255216 0.000000
0.707956 0.253176 0.000000
0.719068 0.251248 0.000000
0.729930 0.249518 0.000000
0.740467 0.247889 0.000000
0.750680 0.245694 0.000000
0.760597 0.243355 0.000000
0.770238 0.241125 0.000000
0.779619 0.238995 0.000000
0.788647 0.237061 0.000000
0.797200 0.235441 0.000000
0.805540 0.233899 0.000000
0.813675 0.232431 0.000000
0.821616 0.231031 0.000000
0.829437 0.228761 0.000000
0.837095 0.226350 0.000000
0.844582 0.224029 0.000000
0.851712 0.221980 0.000000
0.858123 0.220550 0.000000
0.864400 0.219183 0.000000
0.870548 0.217877 0.000000
0.876572 0.216628 0.000000
0.882477 0.215435 0.000000
0.888267 0.214295 0.000000
0.893947 0.213205 0.000000
0.899521 0.212164 0.000000
0.905039 0.209647 0.000000
0.910071 0.207818 0.000000
0.914660 0.206711 0.000000
0.919168 0.205656 0.000000
0.923599 0.204649 0.000000
0.927948 0.203663 0.000000
0.932184 0.202572 0.000000
0.936350 0.201525 0.000000
0.940448 0.200521 0.000000
0.944481 0.199559 0.000000
0.000000 0.340380 0.000000
0.000000 0.340031 0.000000
0.000000 0.339318 0.000000
0.000000 0.338188 0.000000
0.006605 0.336856 0.000000
0.057785 0.335321 0.000000
0.135151 0.333500 0.000000
0.204944 0.331664 0.000000
0.252023 0.329578 0.000000
0.296594 0.327463 0.000000
0.333454 0.325207 0.000000
0.370114 0.323011 0.000000
0.401472 0.320453 0.000000
0.430596 0.318114 0.000000
0.459161 0.315808 0.000000
0.483185 0.313268 0.000000
0.505775 0.310946 0.000000
0.527940 0.308684 0.000000
0.548392 0.306482 0.000000
0.566481 0.304157 0.000000
0.583821 0.301989 0.000000
0.600732 0.299930 0.000000
0.616913 0.298016 0.000000
0.631725 0.295937 0.000000
0.645558 0.293827 0.000000
0.659018 0.291856 0.000000
0.672058 0.290012 0.000000
0.684636 0.288279 0.000000
0.696784 0.286649 0.000000
0.708289 0.284656 0.000000
0.719355 0.282616 0.000000
0.730161 0.280761 0.000000
0.740644 0.279003 0.000000
0.750819 0.277335 0.000000
0.760707 0.275750 0.000000
0.770321 0.274246 0.000000
0.779674 0.272705 0.000000
0.788591 0.270700 0.000000
0.797109 0.268942 0.000000
0.805414 0.267262 0.000000
0.813501 0.265692 0.000000
0.821364 0.264258 0.000000
0.829043 0.262891 0.000000
0.836548 0.261586 0.000000
0.843885 0.260342 0.000000
0.850713 0.259336 0.000000
0.856999 0.258414 0.000000
0.863211 0.256928 0.000000
0.869295 0.255502 0.000000
0.875256 0.254136 0.000000
0.881099 0.252825 0.000000
0.886828 0.251568 0.000000
0.892449 0.250363 0.000000
0.897964 0.249206 0.000000
0.903377 0.248097 0.000000
0.908157 0.247408 0.000000
0.912651 0.246898 0.000000
0.917065 0.246421 0.000000
0.921404 0.245974 0.000000
0.925670 0.245533 0.000000
0.929904 0.244278 0.000000
0.934069 0.243067 0.000000
0.938167 0.241901 0.000000
0.942199 0.240777 0.000000
0.000000 0.365024 0.000000
0.000000 0.364657 0.000000
0.000000 0.363913 0.000000
0.000000 0.362873 0.000000
0.000000 0.361621 0.000000
0.038207 0.360193 0.000000
0.100150 0.358681 0.000000
0.177319 0.356969 0.000000
0.233878 0.355121 0.000000
0.281223 0.353133 0.000000
0.321251 0.351142 0.000000
0.358256 0.348809 0.000000
0.392939 0.346701 0.000000
0.422621 0.344321 0.000000
0.450874 0.341938 0.000000
0.477398 0.339771 0.000000
0.501035 0.337520 0.000000
0.523006 0.335171 0.000000
0.543841 0.333006 0.000000
0.563649 0.331004 0.000000
0.581814 0.328924 0.000000
0.598577 0.326835 0.000000
0.614604 0.324944 0.000000
0.629972 0.323183 0.000000
0.644732 0.321542 0.000000
0.658738 0.319865 0.000000
0.671660 0.318039 0.000000
0.684127 0.316324 0.000000
0.696169 0.314710 0.000000
0.707814 0.313192 0.000000
0.719122 0.311794 0.000000
0.730138 0.310532 0.000000
0.740559 0.308838 0.000000
0.750649 0.307176 0.000000
0.760453 0.305599 0.000000
0.769987 0.304100 0.000000
0.779265 0.302676 0.000000
0.788002 0.301486 0.000000
0.796394 0.300424 0.000000
0.804577 0.299420 0.000000
0.812584 0.298103 0.000000
0.820419 0.296548 0.000000
0.828074 0.295060 0.000000
0.835554 0.293636 0.000000
0.842868 0.292271 0.000000
0.849521 0.291225 0.000000
0.855773 0.290363 0.000000
0.861894 0.289546 0.000000
0.867891 0.288771 0.000000
0.873767 0.288037 0.000000
0.879528 0.287342 0.000000
0.885222 0.286215 0.000000
0.890831 0.284881 0.000000
0.896336 0.283599 0.000000
0.901741 0.282363 0.000000
0.906364 0.281652 0.000000
0.910851 0.281015 0.000000
0.915260 0.280412 0.000000
0.919594 0.279841 0.000000
0.923855 0.279302 0.000000
0.928045 0.278793 0.000000
0.932166 0.278313 0.000000
0.936222 0.277861 0.000000
0.940213 0.277436 0.000000
0.000000 0.387501 0.000000
0.000000 0.387109 0.000000
0.000000 0.386439 0.000000
0.000000 0.385533 0.000000
0.000000 0.384475 0.000000
0.019608 0.383322 0.000000
0.071872 0.382087 0.000000
0.145631 0.380518 0.000000
0.216381 0.379079 0.000000
0.264656 0.377191 0.000000
0.307527 0.375499 0.000000
0.347165 0.373421 0.000000
0.381334 0.371359 0.000000
0.414121 0.369431 0.000000
0.442990 0.367234 0.000000
0.469191 0.365109 0.000000
0.494276 0.363136 0.000000
0.518103 0.361202 0.000000
0.538716 0.359073 0.000000
0.558323 0.357106 0.000000
0.577350 0.355271 0.000000
0.595723 0.353561 0.000000
0.612068 0.351685 0.000000
0.627332 0.349838 0.000000
0.642016 0.348113 0.000000
0.656378 0.346529 0.000000
0.670217 0.345046 0.000000
0.683414 0.343589 0.000000
0.695386 0.341884 0.000000
0.706967 0.340275 0.000000
0.718233 0.338802 0.000000
0.729193 0.337447 0.000000
0.739827 0.336167 0.000000
0.750151 0.334959 0.000000
0.760165 0.333779 0.000000
0.769655 0.332184 0.000000
0.778892 0.330664 0.000000
0.787505 0.329424 0.000000
0.795863 0.328265 0.000000
0.804013 0.327164 0.000000
0.811967 0.326118 0.000000
0.819734 0.325125 0.000000
0.827321 0.324181 0.000000
0.834738 0.323284 0.000000
0.842027 0.321843 0.000000
0.848504 0.320775 0.000000
0.854738 0.319811 0.000000
0.860842 0.318891 0.000000
0.866822 0.318015 0.000000
0.872683 0.317180 0.000000
0.878416 0.316387 0.000000
0.884013 0.315637 0.000000
0.889503 0.314923 0.000000
0.894892 0.314244 0.000000
0.900084 0.313639 0.000000
0.904543 0.313305 0.000000
0.908985 0.312526 0.000000
0.913348 0.311783 0.000000
0.917636 0.311072 0.000000
0.921852 0.310394 0.000000
0.925998 0.309747 0.000000
0.930076 0.309130 0.000000
0.934088 0.308541 0.000000
0.938036 0.307980 0.000000
0.000000 0.409930 0.000000
0.000000 0.409674 0.000000
0.000000 0.409079 0.000000
0.000000 0.408249 0.000000
0.000000 0.407277 0.000000
0.000000 0.406211 0.000000
0.051456 0.404921 0.000000
0.115486 0.403569 0.000000
0.186280 0.402035 0.000000
0.248759 0.400469 0.000000
0.291960 0.398672 0.000000
0.335029 0.396898 0.000000
0.370439 0.394934 0.000000
0.403230 0.392918 0.000000
0.434456 0.391052 0.000000
0.461665 0.389052 0.000000
0.486706 0.387004 0.000000
0.510783 0.385090 0.000000
0.533635 0.383326 0.000000
0.553589 0.381383 0.000000
0.572580 0.379477 0.000000
0.590821 0.377699 0.000000
0.608290 0.376042 0.000000
0.625048 0.374495 0.000000
0.639727 0.372714 0.000000
0.653999 0.371057 0.000000
0.667756 0.369500 0.000000
0.681033 0.368034 0.000000
0.693860 0.366655 0.000000
0.706268 0.365356 0.000000
0.717557 0.363851 0.000000
0.728448 0.362438 0.000000
0.739005 0.361117 0.000000
0.749257 0.359866 0.000000
0.759222 0.358682 0.000000
0.768914 0.357561 0.000000
0.778290 0.356517 0.000000
0.786921 0.355576 0.000000
0.795208 0.354364 0.000000
0.803290 0.353209 0.000000
0.811177 0.352109 0.000000
0.818879 0.351062 0.000000
0.826404 0.350063 0.000000
0.833759 0.349112 0.000000
0.840904 0.348223 0.000000
0.847162 0.347628 0.000000
0.853288 0.347068 0.000000
0.859306 0.346365 0.000000
0.865232 0.345409 0.000000
0.871039 0.344494 0.000000
0.876733 0.343619 0.000000
0.882318 0.342782 0.000000
0.887797 0.341982 0.000000
0.893175 0.341217 0.000000
0.898207 0.340591 0.000000
0.902654 0.340206 0.000000
