VVS_PIPELINE/vvs-dcc-plugins/common/aces_1.2/luts/1.cube
LUT_3D_SIZE 4
0.000000 0.000000 0.000000
0.590745 0.000000 0.000000
0.834175 0.000000 0.000000
0.958068 0.000000 0.000396
0.000000 0.551033 0.000000
0.542879 0.528581 0.000000
0.813557 0.507096 0.000000
0.919729 0.498718 0.000000
0.000000 0.758553 0.000000
0.400142 0.743106 0.000000
0.746775 0.727633 0.000000
0.872362 0.719891 0.000000
0.000000 0.849236 0.000000
0.265379 0.835133 0.000000
0.703053 0.821519 0.000000
0.835732 0.814031 0.000000
0.000000 0.000000 0.548120
0.636995 0.000000 0.542257
0.875437 0.000000 0.541656
0.972777 0.000000 0.542489
0.000000 0.549922 0.526901
0.527858 0.527858 0.527858
0.783597 0.509826 0.528428
0.900730 0.500888 0.529631
0.000000 0.758017 0.513893
0.365109 0.742757 0.515500
0.736641 0.726771 0.517417
0.858909 0.718992 0.519590
0.000000 0.848760 0.510639
0.255988 0.834662 0.512555
0.688037 0.820709 0.514684
0.826378 0.812789 0.517346
0.000000 0.000000 0.758243
0.621182 0.000000 0.751406
0.876197 0.000000 0.748805
0.981215 0.000000 0.748491
0.000000 0.548352 0.738185
0.506842 0.526214 0.737084
0.804311 0.502688 0.736451
0.916425 0.492635 0.736590
0.000000 0.757098 0.725907
0.325729 0.741266 0.725732
0.725674 0.725673 0.725673
0.841593 0.718901 0.726083
0.000000 0.847775 0.721215
0.189686 0.833346 0.721256
0.674811 0.819528 0.721469
0.816627 0.811826 0.722187
0.000000 0.000000 0.851653
0.612811 0.000000 0.844445
0.871047 0.000000 0.841011
0.981229 0.000000 0.839885
0.000000 0.548253 0.831364
0.491691 0.525855 0.829450
0.797458 0.501969 0.827977
0.918896 0.489818 0.827542
0.000000 0.756224 0.818590
0.316482 0.740639 0.817580
0.717520 0.725047 0.816776
0.850280 0.716526 0.816621
0.000000 0.846969 0.812811
0.191000 0.832732 0.812059
0.668166 0.818941 0.811482
0.811411 0.811411 0.811411
