VVS_PIPELINE/vvs-dcc-plugins/common/aces_1.2/luts/2.cube
LUT_3D_SIZE 4
0.001989 0.001989 0.001989
0.214004 0.011709 -0.000372
0.656323 0.019848 -0.003587
2.046423 -0.040321 -0.023052
0.028482 0.169327 0.007216
0.168394 0.165821 0.005222
0.578408 0.155269 -0.000126
2.156716 0.061064 -0.024547
0.022189 0.542958 0.001418
0.131366 0.542152 -0.000910
0.534348 0.537457 -0.009633
2.891813 0.392177 -0.055536
-2.677157 5.793416 -0.666408
-2.752461 6.135162 -0.707677
-3.045751 7.651712 -0.891784
3.666143 13.387326 -1.773482
0.021795 0.005285 0.179504
0.190682 0.014655 0.176634
0.616466 0.022924 0.167045
2.055688 -0.042451 0.138656
0.028486 0.168480 0.167293
0.164631 0.164631 0.164631
0.616518 0.149437 0.156413
2.208984 0.054293 0.126963
0.019380 0.542242 0.138599
0.128591 0.541443 0.135934
0.533292 0.536654 0.126026
3.001239 0.380774 0.076544
-2.709811 5.848911 -0.562531
-2.787476 6.196978 -0.614665
-3.087470 7.746664 -0.849286
4.181379 13.641841 -1.817760
0.046538 0.011220 0.561589
0.190051 0.017071 0.562146
0.557932 0.028412 0.560012
1.927134 -0.029156 0.537940
0.036575 0.165409 0.558621
0.162229 0.162244 0.557770
0.543470 0.154460 0.554072
2.169653 0.057460 0.528512
0.014422 0.540469 0.544247
0.123826 0.539654 0.542278
0.534455 0.534455 0.534456
3.337596 0.347171 0.483839
-2.829075 6.045887 -0.161784
-2.917877 6.416657 -0.216608
-3.254771 8.087172 -0.467313
6.521660 14.574185 -1.826667
-0.153253 -0.016414 4.210517
-0.042799 -0.014409 4.364206
0.297990 -0.011636 4.773311
1.621522 -0.074447 5.351600
-0.216557 0.121507 4.797472
-0.111189 0.117823 4.912282
0.250171 0.105251 5.260833
1.771224 0.013001 5.821107
-0.395713 0.477531 6.722498
-0.293370 0.475461 6.830659
0.103894 0.465156 7.199733
2.793819 0.288445 7.888052
-4.069254 6.312985 13.962766
-4.206853 6.731019 14.236617
-4.717911 8.656272 15.198849
16.291740 16.291727 16.291769
