VVS_PIPELINE/vvs-dcc-plugins/common/aces_1.2/luts/2.cube
LUT_3D_SIZE 8
0.001989 0.001989 0.001989
0.066850 0.005454 0.001116
0.170156 0.010009 -0.000108
0.311569 0.015249 -0.000833
0.493067 0.019314 -0.002072
0.755524 0.019084 -0.004627
1.158953 0.009462 -0.009574
2.046423 -0.040321 -0.023052
0.011407 0.056748 0.003281
0.056682 0.055761 0.002702
0.147288 0.055911 0.001790
0.282880 0.056172 0.000604
0.466679 0.055562 -0.001047
0.734437 0.051297 -0.003923
1.147036 0.037690 -0.009170
2.064069 -0.017393 -0.023232
0.023609 0.136903 0.006209
0.058602 0.135952 0.005698
0.136636 0.134570 0.004639
0.251837 0.133200 0.003218
0.424585 0.129776 0.001147
0.694259 0.121176 -0.002215
1.125932 0.101604 -0.008106
2.122841 0.035789 -0.023879
0.038681 0.242134 0.008866
0.066698 0.241187 0.008407
0.133473 0.239338 0.007343
0.239900 0.237148 0.005689
0.402528 0.233589 0.003137
0.659019 0.225483 -0.000911
1.107349 0.204219 -0.008088
2.255010 0.125155 -0.027407
0.039857 0.395062 0.007217
0.062699 0.394632 0.006786
0.121573 0.393678 0.005677
0.226610 0.392074 0.003686
0.390233 0.389288 0.000551
0.640802 0.383320 -0.004286
1.112509 0.362618 -0.013184
2.530615 0.262602 -0.038586
0.004522 0.639560 -0.004195
0.026039 0.639662 -0.004704
0.083853 0.639966 -0.006079
0.190197 0.640444 -0.008623
0.360314 0.640676 -0.012716
0.628132 0.638722 -0.019153
1.179680 0.619876 -0.031732
3.157284 0.483614 -0.070433
-0.203149 1.233603 -0.062122
-0.182723 1.236692 -0.063101
-0.127094 1.245064 -0.065769
-0.022672 1.260391 -0.070758
0.148730 1.283841 -0.078811
0.458050 1.312910 -0.091891
1.197543 1.328105 -0.116768
4.437291 1.158236 -0.193864
-2.677157 5.793416 -0.666408
-2.691060 5.858397 -0.674265
-2.730802 6.039458 -0.696133
-2.811658 6.394431 -0.738937
-2.941632 7.012049 -0.813665
-3.087190 8.072598 -0.943826
-2.902278 9.948375 -1.184527
3.666143 13.387326 -1.773482
0.007863 0.002727 0.060189
0.064586 0.005738 0.059337
0.159053 0.011026 0.058314
0.309600 0.014997 0.055962
0.495288 0.018465 0.052013
0.761025 0.017882 0.046545
1.165367 0.008191 0.038736
2.053837 -0.041610 0.022525
0.011808 0.058200 0.057794
0.057760 0.057760 0.057760
0.155269 0.055140 0.055405
0.294090 0.054465 0.053230
0.478187 0.053687 0.049744
0.745355 0.049504 0.044698
1.156884 0.036046 0.037187
2.073731 -0.018919 0.020837
0.022781 0.136957 0.053537
0.057491 0.135847 0.052908
0.135007 0.134237 0.051580
0.251731 0.132628 0.049565
0.431354 0.128456 0.046428
0.706227 0.119303 0.041760
1.139073 0.099633 0.034423
2.136265 0.033895 0.017111
0.037647 0.241753 0.049875
0.065512 0.240820 0.049344
0.132040 0.238992 0.048087
0.238394 0.236811 0.046085
0.401935 0.233161 0.043024
0.663120 0.224556 0.038305
1.118844 0.202515 0.030310
2.271934 0.122974 0.010036
0.038758 0.394784 0.043414
0.061533 0.394360 0.042945
0.120372 0.393411 0.041731
0.225435 0.391807 0.039554
0.389182 0.389012 0.036138
0.640575 0.382967 0.030919
1.117972 0.361685 0.021499
2.550326 0.260271 -0.004634
0.003556 0.639411 0.028089
0.025070 0.639515 0.027553
0.082909 0.639813 0.026108
0.189315 0.640298 0.023435
0.359585 0.640520 0.019148
0.627875 0.638547 0.012438
1.182424 0.619445 -0.000522
3.181638 0.481097 -0.039907
-0.204108 1.233997 -0.033370
-0.183677 1.237099 -0.034368
-0.128016 1.245483 -0.037088
-0.023506 1.260819 -0.042168
0.148125 1.284286 -0.050361
0.458362 1.313340 -0.063644
1.201056 1.328354 -0.088822
4.473145 1.155679 -0.166734
-2.683329 5.804377 -0.649450
-2.697202 5.869593 -0.659223
-2.736897 6.051387 -0.686459
-2.817611 6.407750 -0.739576
-2.948381 7.027907 -0.815503
-3.094930 8.093302 -0.946251
-2.908212 9.978458 -1.188176
3.763464 13.437144 -1.782065
0.018014 0.004410 0.145207
0.068011 0.006988 0.144535
0.154384 0.012257 0.143123
0.272738 0.018943 0.140860
0.458723 0.021996 0.136727
0.744502 0.019093 0.130785
1.156107 0.008551 0.122276
2.058638 -0.042663 0.104984
0.015799 0.058088 0.141281
0.058341 0.057065 0.140721
0.143268 0.056461 0.139439
0.264976 0.057191 0.137414
0.462511 0.054766 0.133645
0.740647 0.049320 0.128138
1.157483 0.035264 0.119933
2.084849 -0.020694 0.102533
0.023632 0.136975 0.136034
0.057675 0.135891 0.135449
0.134047 0.134047 0.134047
0.264289 0.130479 0.131700
0.451532 0.125443 0.128261
0.727095 0.116200 0.123152
1.158974 0.096664 0.115167
2.159509 0.030794 0.096882
0.037064 0.241067 0.129314
0.064540 0.240166 0.128759
0.130381 0.238390 0.127424
0.236503 0.236225 0.125248
0.403885 0.232156 0.121868
0.679249 0.222010 0.116622
1.146452 0.198780 0.107938
2.308470 0.118554 0.086708
0.037391 0.394274 0.118784
0.060000 0.393862 0.118283
0.118745 0.392922 0.116973
0.223854 0.391314 0.114614
0.387888 0.388501 0.110912
0.641760 0.382209 0.105274
1.134864 0.359304 0.095197
2.598464 0.254885 0.068017
0.002146 0.639178 0.098780
0.023663 0.639286 0.098212
0.081530 0.639592 0.096681
0.188101 0.640070 0.093853
0.358754 0.640282 0.089325
0.628345 0.638225 0.082268
1.191103 0.618411 0.068764
3.245257 0.474806 0.028144
-0.205870 1.235201 0.032523
-0.185411 1.238311 0.031501
-0.129659 1.246718 0.028716
-0.024930 1.262100 0.023513
0.147308 1.285621 0.015132
0.460017 1.314615 0.001560
1.211406 1.329136 -0.024104
4.571565 1.148810 -0.103837
-2.700961 5.833901 -0.591023
-2.715089 5.899699 -0.600891
-2.755645 6.083215 -0.628393
-2.837872 6.443203 -0.682332
-2.969720 7.070354 -0.776884
-3.116648 8.149323 -0.942739
-2.924255 10.060047 -1.198075
4.036541 13.572392 -1.805577
0.029710 0.007054 0.255628
0.072636 0.008880 0.255085
0.155857 0.013331 0.253793
0.269604 0.019609 0.251569
0.422699 0.025853 0.248181
0.674471 0.026449 0.242830
1.117808 0.012309 0.234335
2.060078 -0.043053 0.216714
0.023613 0.057908 0.251905
0.062652 0.057060 0.251388
0.144621 0.056479 0.250204
0.258555 0.057643 0.248254
0.414802 0.059601 0.245138
0.679828 0.055469 0.240016
1.129360 0.037774 0.231775
2.087741 -0.021314 0.214072
0.027385 0.136315 0.246399
0.060097 0.135245 0.245833
0.134353 0.133439 0.244539
0.244311 0.132001 0.242557
0.409086 0.129366 0.239491
0.703016 0.118063 0.234455
1.153250 0.096542 0.226445
2.172224 0.029052 0.207873
0.038289 0.240207 0.239339
0.065109 0.239354 0.238825
0.129774 0.237668 0.237584
0.235519 0.235518 0.235519
0.425988 0.228909 0.232112
0.711280 0.217690 0.226901
1.180435 0.194350 0.218226
2.354681 0.113302 0.196684
0.036812 0.393647 0.228182
0.059159 0.393259 0.227699
0.117771 0.392325 0.226427
0.222939 0.390707 0.224125
0.387472 0.387850 0.220485
0.648605 0.380793 0.214866
1.173457 0.354577 0.204584
2.677058 0.246528 0.176820
0.001002 0.638966 0.207549
0.022521 0.639077 0.206994
0.080455 0.639384 0.205491
0.187282 0.639862 0.202707
0.358607 0.640042 0.198237
0.630545 0.637840 0.191222
1.209885 0.616525 0.177582
3.360366 0.463768 0.135775
-0.208259 1.237502 0.140978
-0.187745 1.240624 0.139964
-0.131827 1.249079 0.137199
-0.026720 1.264534 0.132034
0.146639 1.288132 0.123689
0.463858 1.317031 0.110094
1.231249 1.330639 0.084177
4.760633 1.135482 0.001774
-2.732827 5.887901 -0.489242
-2.747555 5.954868 -0.499264
-2.789738 6.141657 -0.527204
-2.874802 6.508284 -0.582038
-3.011037 7.148085 -0.678365
-3.163037 8.251398 -0.847755
-2.957270 10.210189 -1.165564
4.576363 13.823006 -1.849948
0.040815 0.009639 0.412627
0.078131 0.011069 0.412472
0.157165 0.014697 0.412053
0.268151 0.020288 0.411082
0.420717 0.026026 0.409020
0.643606 0.029451 0.405135
1.018977 0.022580 0.398243
2.013017 -0.038133 0.381180
0.032592 0.057337 0.410176
0.068157 0.056710 0.409972
0.146135 0.056309 0.409486
0.257378 0.057495 0.408541
0.412332 0.059380 0.406552
0.638598 0.059306 0.402819
1.027498 0.048173 0.396040
2.054551 -0.018032 0.378719
0.032521 0.135167 0.406824
0.063486 0.134220 0.406463
0.134949 0.132588 0.405643
0.243207 0.131204 0.404362
0.401122 0.129222 0.402173
0.634444 0.124490 0.398429
1.062892 0.105396 0.391460
2.169255 0.028942 0.372982
0.039994 0.238979 0.402231
0.065912 0.238195 0.401840
0.128947 0.236627 0.400892
0.234309 0.234486 0.399273
0.395140 0.231109 0.396633
0.644713 0.223819 0.392328
1.148347 0.196856 0.384138
2.380581 0.110250 0.362640
0.035743 0.392717 0.393570
0.057848 0.392343 0.393164
0.116297 0.391417 0.392071
0.221590 0.389780 0.390075
0.386851 0.386851 0.386852
0.687129 0.375548 0.381511
1.235025 0.347059 0.371591
2.773343 0.236401 0.343679
-0.000977 0.638607 0.375554
0.020553 0.638720 0.375049
0.078595 0.639031 0.373673
0.185851 0.639494 0.371109
0.358167 0.639633 0.366951
0.633851 0.637180 0.360291
1.249427 0.612394 0.346732
3.539554 0.446544 0.303539
-0.212318 1.240933 0.311542
-0.191728 1.244084 0.310561
-0.135543 1.252590 0.307888
-0.029845 1.268162 0.302877
0.145316 1.291880 0.294739
0.469622 1.320596 0.281316
1.262227 1.332735 0.255256
5.078932 1.112110 0.168725
-2.782822 5.971425 -0.326172
-2.798375 6.040094 -0.336404
-2.843084 6.231967 -0.364972
-2.932534 6.609017 -0.421156
-3.075723 7.268851 -0.520170
-3.235783 8.410322 -0.695019
-3.015333 10.444799 -1.024881
5.530139 14.216996 -1.914241
0.048508 0.011857 0.656160
0.081865 0.012929 0.656559
0.156165 0.015870 0.657480
0.264020 0.020699 0.658574
0.416891 0.025762 0.658965
0.641241 0.028574 0.657731
0.991549 0.024207 0.653691
1.879581 -0.024408 0.639667
0.039573 0.056368 0.655775
0.071974 0.055928 0.656051
0.145347 0.055731 0.656727
0.253574 0.056917 0.657572
0.408749 0.058499 0.657777
0.636250 0.058016 0.656507
0.993133 0.050279 0.652476
1.919529 -0.004292 0.638046
0.035913 0.133335 0.656644
0.064844 0.132526 0.656649
0.133018 0.131094 0.656727
0.239459 0.129747 0.656841
0.397762 0.127588 0.656455
0.631322 0.122715 0.654824
1.005125 0.109673 0.650448
2.042561 0.041654 0.634409
0.039221 0.236988 0.657960
0.064054 0.236286 0.657819
0.125210 0.234851 0.657512
0.230279 0.232697 0.656919
0.391781 0.229221 0.655692
0.633034 0.222843 0.653183
1.040711 0.206620 0.647506
2.313051 0.116767 0.627427
0.031437 0.391068 0.656570
0.053378 0.390702 0.656340
0.111649 0.389779 0.655714
0.217152 0.388107 0.654517
0.383459 0.385072 0.652441
0.637108 0.378932 0.648863
1.132814 0.356521 0.640889
2.823025 0.230963 0.613225
-0.006714 0.637667 0.647576
0.014843 0.637778 0.647216
0.073046 0.638091 0.646226
0.180912 0.638528 0.644337
0.354619 0.638597 0.641173
0.635759 0.635759 0.635761
1.352851 0.600544 0.622962
3.762014 0.424896 0.579375
-0.221428 1.245168 0.594728
-0.200728 1.248348 0.593878
-0.144204 1.256954 0.591544
-0.037685 1.272681 0.587137
0.140200 1.296529 0.579870
0.474774 1.324963 0.567486
1.304011 1.334918 0.542234
5.590414 1.071904 0.450428
-2.857918 6.089252 -0.042765
-2.874801 6.160537 -0.053226
-2.923168 6.359741 -0.082469
-3.018905 6.751994 -0.140192
-3.172294 7.441026 -0.242507
-3.344135 8.637512 -0.424313
-3.102607 10.784287 -0.771011
7.181263 14.785090 -1.753633
0.038117 0.011252 1.191420
0.068112 0.012061 1.194257
0.137124 0.014396 1.201165
0.241422 0.018415 1.211560
0.394231 0.022625 1.223532
0.620253 0.024556 1.235376
0.978668 0.018808 1.245314
1.826459 -0.024886 1.245866
0.028395 0.052718 1.200509
0.057709 0.052429 1.202891
0.126038 0.052390 1.208812
0.230970 0.053459 1.217964
0.386030 0.054570 1.228859
0.615224 0.053405 1.239938
0.980603 0.044422 1.249339
1.854705 -0.003754 1.249171
0.020199 0.128401 1.222466
0.047004 0.127715 1.224077
0.111425 0.126461 1.228258
0.215997 0.125048 1.235115
0.374471 0.122586 1.243786
0.609890 0.117220 1.253092
0.993235 0.103067 1.261033
1.941453 0.045876 1.258608
0.017393 0.231563 1.255019
0.040978 0.230938 1.256084
0.100312 0.229588 1.258891
0.204906 0.227363 1.263606
0.366997 0.223686 1.269852
0.610412 0.216948 1.276788
1.028314 0.199750 1.282140
2.133518 0.129671 1.275069
0.003689 0.385669 1.294633
0.025427 0.385304 1.295363
0.083441 0.384355 1.297239
0.189071 0.382597 1.300442
0.356479 0.379360 1.304752
0.613860 0.372772 1.309512
1.100521 0.351701 1.311683
2.555603 0.254289 1.296272
-0.039164 0.632750 1.338983
-0.017598 0.632862 1.339448
0.040747 0.633147 1.340674
0.149222 0.633520 1.342725
0.324477 0.633446 1.345382
0.613025 0.629989 1.347685
1.236565 0.605836 1.344945
3.649956 0.434175 1.310891
-0.262397 1.246380 1.356485
-0.241577 1.249604 1.356416
-0.184680 1.258299 1.356203
-0.077275 1.274193 1.355611
0.104307 1.298148 1.353999
0.452840 1.326063 1.349121
1.332796 1.332795 1.332799
6.371538 1.000423 1.242252
-2.993815 6.243552 0.795505
-3.012567 6.318416 0.785383
-3.066131 6.527820 0.756973
-3.170711 6.941200 0.700301
-3.338987 7.671474 0.598131
-3.527394 8.943574 0.413365
-3.257804 11.251929 0.051110
10.265894 15.555004 -1.075970
-0.153253 -0.016414 4.210517
-0.128349 -0.016090 4.242974
-0.069551 -0.015026 4.325105
0.023362 -0.012982 4.458690
0.165130 -0.011374 4.635587
0.379770 -0.012517 4.847450
0.733981 -0.022437 5.088752
1.621522 -0.074447 5.351600
-0.171751 0.021127 4.337255
-0.147127 0.020685 4.366814
-0.088449 0.020075 4.442312
0.005955 0.019751 4.567322
0.150397 0.018679 4.736218
0.368546 0.014711 4.942120
0.730523 0.001719 5.179982
1.646871 -0.054843 5.441576
-0.203977 0.092315 4.648936
-0.180800 0.091507 4.673733
-0.124269 0.089800 4.738303
-0.027967 0.087185 4.848467
0.120960 0.082860 5.002907
0.346086 0.074977 5.197997
0.728215 0.056951 5.430176
1.725975 -0.008963 5.690685
-0.246570 0.189903 5.168134
-0.225648 0.189143 5.189435
-0.171166 0.187272 5.245618
-0.073402 0.183982 5.344162
0.080119 0.178642 5.487335
0.314014 0.169562 5.675198
0.734902 0.148217 5.906461
1.905037 0.068084 6.172353
-0.318198 0.336236 5.958149
-0.298017 0.335655 5.978501
-0.243843 0.334131 6.032625
-0.144427 0.331273 6.129398
0.014665 0.326323 6.273730
0.264159 0.317127 6.469116
0.760482 0.291042 6.717004
2.298167 0.182278 7.007525
-0.451774 0.571291 7.215337
-0.431765 0.571151 7.238187
-0.377440 0.570770 7.299588
-0.275816 0.569913 7.410662
-0.110342 0.567899 7.579780
0.172237 0.561111 7.814451
0.814160 0.530354 8.120114
3.163356 0.364703 8.480918
-0.844675 1.169203 9.464947
-0.825962 1.172143 9.496462
-0.774745 1.180054 9.581616
-0.677423 1.194508 9.736910
-0.507671 1.215965 9.975916
-0.164303 1.239452 10.312274
0.752803 1.236665 10.757371
5.496862 0.944486 11.271087
-4.069254 6.312985 13.962766
-4.095325 6.391995 14.016790
-4.168539 6.613416 14.162506
-4.309066 7.052298 14.428796
-4.536098 7.834224 14.837858
-4.803118 9.200103 15.406696
-4.576234 11.727226 16.114010
16.291740 16.291727 16.291769
