VVS_PIPELINE/vvs-dcc-plugins/common/aces_1.2/luts/2.cube
LUT_3D_SIZE 64
0.001989 0.001989 0.001989
0.007691 0.003090 0.001997
0.013616 0.003226 0.001895
0.019363 0.003340 0.001824
0.025972 0.003522 0.001750
0.033249 0.003771 0.001655
0.041032 0.004121 0.001538
0.049255 0.004548 0.001405
0.057875 0.004995 0.001263
0.066850 0.005454 0.001116
0.076165 0.005922 0.000964
0.085894 0.006386 0.000810
0.096095 0.006845 0.000663
0.106748 0.007317 0.000521
0.117941 0.007809 0.000384
0.130036 0.008338 0.000253
0.142939 0.008894 0.000126
0.156324 0.009451 0.000005
0.170156 0.010009 -0.000108
0.184386 0.010572 -0.000208
0.199005 0.011137 -0.000296
0.214004 0.011709 -0.000372
0.229374 0.012288 -0.000441
0.245108 0.012872 -0.000513
0.261199 0.013461 -0.000588
0.277644 0.014054 -0.000666
0.294435 0.014650 -0.000747
0.311569 0.015249 -0.000833
0.329078 0.015846 -0.000922
0.347123 0.016426 -0.001020
0.365840 0.016971 -0.001128
0.385097 0.017466 -0.001248
0.404967 0.017911 -0.001381
0.425660 0.018319 -0.001530
0.447212 0.018692 -0.001695
0.469665 0.019025 -0.001877
0.493067 0.019314 -0.002072
0.517466 0.019554 -0.002282
0.542907 0.019741 -0.002507
0.569449 0.019869 -0.002749
0.597155 0.019934 -0.003008
0.626092 0.019929 -0.003287
0.656323 0.019848 -0.003587
0.687921 0.019685 -0.003910
0.720965 0.019432 -0.004256
0.755524 0.019084 -0.004627
0.791692 0.018632 -0.005026
0.829562 0.018068 -0.005454
0.869218 0.017384 -0.005914
0.910783 0.016569 -0.006406
0.954356 0.015615 -0.006933
1.000198 0.014497 -0.007500
1.049175 0.013136 -0.008122
1.101923 0.011473 -0.008811
1.158953 0.009462 -0.009574
1.220924 0.007047 -0.010425
1.288579 0.004159 -0.011375
1.362872 0.000715 -0.012442
1.445058 -0.003396 -0.013648
1.536699 -0.008311 -0.015020
1.639934 -0.014222 -0.016598
1.757726 -0.021388 -0.018435
1.893079 -0.030074 -0.020584
2.046423 -0.040321 -0.023052
0.002590 0.011111 0.002040
0.010966 0.010848 0.001884
0.016983 0.010772 0.001772
0.022109 0.010783 0.001677
0.027651 0.010836 0.001578
0.033820 0.010917 0.001470
0.040662 0.011015 0.001355
0.048156 0.011135 0.001233
0.056228 0.011283 0.001109
0.064799 0.011464 0.000985
0.073824 0.011678 0.000864
0.083354 0.011919 0.000743
0.093405 0.012182 0.000624
0.103961 0.012464 0.000506
0.115135 0.012777 0.000392
0.127338 0.013160 0.000281
0.140199 0.013562 0.000177
0.153566 0.013970 0.000079
0.167393 0.014387 -0.000011
0.181630 0.014816 -0.000091
0.196263 0.015259 -0.000163
0.211283 0.015712 -0.000234
0.226679 0.016177 -0.000307
0.242446 0.016652 -0.000384
0.258573 0.017135 -0.000463
0.275059 0.017627 -0.000546
0.291894 0.018125 -0.000632
0.309075 0.018630 -0.000722
0.326632 0.019138 -0.000816
0.344738 0.019631 -0.000918
0.363508 0.020091 -0.001031
0.382813 0.020507 -0.001156
0.402740 0.020884 -0.001296
0.423486 0.021233 -0.001451
0.445089 0.021549 -0.001621
0.467593 0.021828 -0.001805
0.491044 0.022064 -0.002003
0.515494 0.022254 -0.002215
0.540986 0.022393 -0.002442
0.567583 0.022475 -0.002685
0.595341 0.022495 -0.002947
0.624329 0.022447 -0.003229
0.654610 0.022325 -0.003531
0.686263 0.022121 -0.003856
0.719357 0.021830 -0.004205
0.753970 0.021445 -0.004579
0.790189 0.020956 -0.004980
0.828111 0.020357 -0.005411
0.867825 0.019639 -0.005872
0.909446 0.018790 -0.006367
0.953078 0.017803 -0.006897
0.998993 0.016650 -0.007467
1.048059 0.015251 -0.008091
1.100904 0.013551 -0.008782
1.158063 0.011501 -0.009548
1.220148 0.009048 -0.010402
1.287938 0.006121 -0.011355
1.362391 0.002638 -0.012425
1.444738 -0.001512 -0.013634
1.536588 -0.006471 -0.015010
1.640080 -0.012427 -0.016593
1.758191 -0.019645 -0.018436
1.893853 -0.028382 -0.020590
2.047544 -0.038680 -0.023065
0.003680 0.016735 0.001909
0.010858 0.016480 0.001778
0.016580 0.016341 0.001677
0.021784 0.016253 0.001587
0.027362 0.016201 0.001494
0.033433 0.016187 0.001395
0.040045 0.016202 0.001293
0.047215 0.016243 0.001189
0.054938 0.016309 0.001083
0.063186 0.016399 0.000978
0.071942 0.016515 0.000873
0.081268 0.016648 0.000768
0.091160 0.016797 0.000664
0.101610 0.016964 0.000562
0.112757 0.017171 0.000464
0.124997 0.017471 0.000373
0.137785 0.017777 0.000286
0.151102 0.018090 0.000205
0.164891 0.018413 0.000130
0.179105 0.018750 0.000058
0.193730 0.019099 -0.000016
0.208752 0.019461 -0.000092
0.224160 0.019835 -0.000171
0.239944 0.020221 -0.000253
0.256097 0.020619 -0.000337
0.272610 0.021026 -0.000425
0.289476 0.021442 -0.000516
0.306691 0.021868 -0.000610
0.324293 0.022297 -0.000709
0.342453 0.022716 -0.000816
0.361259 0.023107 -0.000935
0.380594 0.023463 -0.001066
0.400565 0.023786 -0.001212
0.421355 0.024082 -0.001373
0.443005 0.024346 -0.001547
0.465560 0.024575 -0.001733
0.489060 0.024763 -0.001933
0.513557 0.024907 -0.002146
0.539099 0.025001 -0.002376
0.565740 0.025040 -0.002622
0.593550 0.025019 -0.002886
0.622588 0.024930 -0.003170
0.652924 0.024768 -0.003475
0.684626 0.024527 -0.003802
0.717765 0.024201 -0.004153
0.752432 0.023778 -0.004530
0.788705 0.023255 -0.004934
0.826683 0.022622 -0.005367
0.866451 0.021871 -0.005831
0.908128 0.020991 -0.006328
0.951821 0.019970 -0.006860
0.997808 0.018781 -0.007433
1.046961 0.017346 -0.008060
1.099901 0.015610 -0.008753
1.157164 0.013524 -0.009522
1.219372 0.011033 -0.010378
1.287310 0.008067 -0.011334
1.361911 0.004545 -0.012407
1.444450 0.000354 -0.013619
1.536498 -0.004645 -0.015000
1.640249 -0.010648 -0.016588
1.758672 -0.017916 -0.018436
1.894645 -0.026702 -0.020596
2.048681 -0.037051 -0.023078
0.004675 0.021554 0.001863
0.010983 0.021326 0.001755
0.016380 0.021170 0.001666
0.021385 0.021054 0.001587
0.026854 0.020958 0.001503
0.032839 0.020890 0.001414
0.039334 0.020847 0.001322
0.046334 0.020831 0.001228
0.053840 0.020838 0.001133
0.061848 0.020869 0.001039
0.070377 0.020920 0.000946
0.079504 0.020984 0.000853
0.089226 0.021060 0.000763
0.099579 0.021161 0.000675
0.110764 0.021327 0.000593
0.122877 0.021564 0.000515
0.135568 0.021802 0.000440
0.148808 0.022045 0.000367
0.162537 0.022296 0.000292
0.176710 0.022559 0.000215
0.191308 0.022833 0.000136
0.206316 0.023119 0.000054
0.221721 0.023418 -0.000030
0.237510 0.023729 -0.000117
0.253676 0.024052 -0.000207
0.270207 0.024385 -0.000300
0.287096 0.024730 -0.000396
0.304336 0.025085 -0.000495
0.321968 0.025448 -0.000599
0.340165 0.025808 -0.000712
0.358991 0.026146 -0.000838
0.378348 0.026449 -0.000976
0.398362 0.026720 -0.001128
0.419197 0.026966 -0.001293
0.440892 0.027183 -0.001469
0.463491 0.027364 -0.001657
0.487039 0.027507 -0.001859
0.511584 0.027607 -0.002075
0.537173 0.027658 -0.002307
0.563860 0.027656 -0.002556
0.591720 0.027594 -0.002822
0.620805 0.027467 -0.003109
0.651193 0.027267 -0.003416
0.682944 0.026988 -0.003746
0.716144 0.026625 -0.004100
0.750861 0.026168 -0.004479
0.787186 0.025611 -0.004886
0.825211 0.024946 -0.005321
0.865042 0.024161 -0.005788
0.906770 0.023249 -0.006288
0.950529 0.022193 -0.006823
0.996591 0.020967 -0.007397
1.045848 0.019494 -0.008027
1.098890 0.017721 -0.008723
1.156270 0.015597 -0.009495
1.218605 0.013068 -0.010353
1.286663 0.010069 -0.011312
1.361441 0.006505 -0.012388
1.444145 0.002276 -0.013604
1.536430 -0.002770 -0.014989
1.640429 -0.008818 -0.016582
1.759170 -0.016136 -0.018436
1.895481 -0.024974 -0.020603
2.049853 -0.035376 -0.023090
0.005618 0.026622 0.001908
0.011323 0.026409 0.001817
0.016395 0.026246 0.001738
0.021160 0.026115 0.001667
0.026424 0.025994 0.001592
0.032268 0.025889 0.001511
0.038628 0.025805 0.001428
0.045473 0.025744 0.001344
0.052791 0.025707 0.001260
0.060586 0.025692 0.001178
0.068900 0.025694 0.001097
0.077810 0.025708 0.001017
0.087330 0.025733 0.000939
0.097533 0.025788 0.000864
0.108734 0.025945 0.000793
0.120674 0.026127 0.000721
0.133225 0.026307 0.000645
0.146351 0.026487 0.000566
0.159987 0.026672 0.000485
0.174087 0.026867 0.000402
0.188633 0.027070 0.000316
0.203606 0.027284 0.000228
0.218988 0.027509 0.000137
0.234770 0.027746 0.000045
0.250934 0.027994 -0.000051
0.267472 0.028254 -0.000150
0.284372 0.028528 -0.000252
0.301622 0.028819 -0.000358
0.319267 0.029125 -0.000470
0.337492 0.029431 -0.000592
0.356339 0.029713 -0.000725
0.375716 0.029959 -0.000871
0.395775 0.030175 -0.001028
0.416658 0.030366 -0.001195
0.438400 0.030530 -0.001374
0.461050 0.030660 -0.001565
0.484652 0.030753 -0.001770
0.509246 0.030804 -0.001989
0.534887 0.030809 -0.002224
0.561633 0.030760 -0.002476
0.589548 0.030652 -0.002745
0.618696 0.030481 -0.003035
0.649136 0.030238 -0.003345
0.680946 0.029918 -0.003678
0.714203 0.029513 -0.004036
0.748981 0.029017 -0.004418
0.785370 0.028421 -0.004828
0.823469 0.027716 -0.005267
0.863361 0.026894 -0.005737
0.905157 0.025940 -0.006240
0.948986 0.024844 -0.006777
0.995143 0.023577 -0.007354
1.044506 0.022061 -0.007987
1.097682 0.020244 -0.008686
1.155195 0.018077 -0.009461
1.217675 0.015506 -0.010323
1.285917 0.012458 -0.011285
1.360882 0.008850 -0.012365
1.443807 0.004572 -0.013586
1.536333 -0.000522 -0.014976
1.640663 -0.006626 -0.016575
1.759789 -0.014005 -0.018436
1.896504 -0.022906 -0.020610
2.051305 -0.033370 -0.023106
0.006601 0.032045 0.002055
0.011845 0.031843 0.001977
0.016594 0.031680 0.001909
0.021109 0.031544 0.001846
0.026155 0.031410 0.001780
0.031806 0.031282 0.001709
0.038000 0.031168 0.001635
0.044679 0.031073 0.001560
0.051817 0.031000 0.001486
0.059414 0.030946 0.001414
0.067535 0.030908 0.001342
0.076240 0.030878 0.001268
0.085580 0.030873 0.001193
0.095705 0.030930 0.001118
0.106756 0.031073 0.001043
0.118471 0.031209 0.000965
0.130827 0.031338 0.000883
0.143789 0.031464 0.000797
0.157283 0.031591 0.000710
0.171273 0.031722 0.000620
0.185731 0.031860 0.000527
0.200636 0.032007 0.000432
0.215971 0.032163 0.000335
0.231715 0.032329 0.000235
0.247856 0.032509 0.000132
0.264373 0.032707 0.000025
0.281255 0.032924 -0.000086
0.298492 0.033161 -0.000202
0.316142 0.033413 -0.000323
0.334392 0.033663 -0.000454
0.353248 0.033886 -0.000595
0.372647 0.034071 -0.000745
0.392751 0.034228 -0.000906
0.413680 0.034362 -0.001076
0.435476 0.034469 -0.001259
0.458181 0.034544 -0.001454
0.481837 0.034582 -0.001662
0.506489 0.034580 -0.001885
0.532190 0.034533 -0.002123
0.559000 0.034432 -0.002379
0.586977 0.034275 -0.002653
0.616187 0.034054 -0.002946
0.646697 0.033764 -0.003261
0.678581 0.033396 -0.003598
0.711905 0.032945 -0.003959
0.746753 0.032404 -0.004345
0.783219 0.031763 -0.004759
0.821387 0.031013 -0.005202
0.861365 0.030143 -0.005675
0.903247 0.029141 -0.006181
0.947161 0.027998 -0.006721
0.993437 0.026681 -0.007301
1.042931 0.025116 -0.007938
1.096250 0.023249 -0.008641
1.153927 0.021032 -0.009420
1.216595 0.018408 -0.010286
1.285031 0.015309 -0.011252
1.360219 0.011648 -0.012337
1.443424 0.007311 -0.013563
1.536282 0.002156 -0.014960
1.640965 -0.004011 -0.016566
1.760571 -0.011463 -0.018436
1.897744 -0.020434 -0.020619
2.053083 -0.030976 -0.023125
0.007691 0.037792 0.002318
0.012518 0.037601 0.002250
0.016955 0.037442 0.002189
0.021228 0.037303 0.002133
0.026059 0.037161 0.002072
0.031507 0.037018 0.002005
0.037507 0.036883 0.001935
0.044008 0.036762 0.001862
0.050969 0.036659 0.001788
0.058388 0.036572 0.001714
0.066341 0.036499 0.001637
0.074881 0.036446 0.001559
0.084072 0.036429 0.001479
0.094190 0.036541 0.001402
0.104972 0.036645 0.001321
0.116419 0.036742 0.001237
0.128526 0.036829 0.001149
0.141263 0.036910 0.001057
0.154562 0.036989 0.000963
0.168388 0.037068 0.000866
0.182712 0.037151 0.000766
0.197505 0.037242 0.000663
0.212743 0.037345 0.000557
0.228408 0.037462 0.000447
0.244478 0.037593 0.000334
0.260940 0.037742 0.000217
0.277781 0.037908 0.000096
0.294986 0.038094 -0.000029
0.312629 0.038292 -0.000159
0.330896 0.038486 -0.000297
0.349755 0.038649 -0.000443
0.369161 0.038770 -0.000597
0.389310 0.038868 -0.000762
0.410288 0.038943 -0.000937
0.432136 0.038991 -0.001123
0.454894 0.039008 -0.001323
0.478607 0.038990 -0.001535
0.503323 0.038930 -0.001763
0.529089 0.038827 -0.002006
0.555965 0.038672 -0.002266
0.584013 0.038461 -0.002544
0.613295 0.038188 -0.002842
0.643880 0.037845 -0.003161
0.675838 0.037426 -0.003503
0.709242 0.036925 -0.003869
0.744170 0.036334 -0.004260
0.780719 0.035642 -0.004678
0.818978 0.034837 -0.005124
0.859049 0.033913 -0.005601
0.901035 0.032856 -0.006111
0.945058 0.031659 -0.006655
0.991457 0.030288 -0.007239
1.041108 0.028668 -0.007880
1.094609 0.026742 -0.008588
1.152471 0.024469 -0.009371
1.215346 0.021787 -0.010241
1.284024 0.018629 -0.011213
1.359494 0.014903 -0.012303
1.443009 0.010503 -0.013536
1.536230 0.005279 -0.014939
1.641361 -0.000963 -0.016554
1.761523 -0.008499 -0.018436
1.899269 -0.017554 -0.020629
2.055205 -0.028182 -0.023147
0.008871 0.043825 0.002633
0.013323 0.043647 0.002569
0.017476 0.043493 0.002512
0.021528 0.043353 0.002458
0.026144 0.043206 0.002398
0.031382 0.043055 0.002331
0.037185 0.042905 0.002261
0.043494 0.042764 0.002187
0.050279 0.042636 0.002111
0.057555 0.042533 0.002033
0.065373 0.042443 0.001953
0.073803 0.042397 0.001871
0.083041 0.042473 0.001792
0.092916 0.042547 0.001709
0.103438 0.042616 0.001622
0.114616 0.042678 0.001532
0.126447 0.042734 0.001437
0.138906 0.042785 0.001338
0.151944 0.042834 0.001235
0.165536 0.042884 0.001130
0.179655 0.042937 0.001021
0.194274 0.042995 0.000908
0.209363 0.043061 0.000792
0.224901 0.043139 0.000672
0.240866 0.043229 0.000549
0.257243 0.043333 0.000422
0.274011 0.043453 0.000292
0.291162 0.043591 0.000160
0.308780 0.043738 0.000025
0.327047 0.043879 -0.000117
0.345897 0.043982 -0.000268
0.365300 0.044041 -0.000427
0.385485 0.044079 -0.000596
0.406508 0.044094 -0.000776
0.428406 0.044083 -0.000968
0.451217 0.044041 -0.001172
0.474987 0.043964 -0.001390
0.499765 0.043847 -0.001623
0.525594 0.043687 -0.001871
0.552539 0.043475 -0.002136
0.580660 0.043208 -0.002420
0.610017 0.042879 -0.002724
0.640679 0.042482 -0.003048
0.672724 0.042008 -0.003395
0.706217 0.041451 -0.003766
0.741245 0.040800 -0.004161
0.777897 0.040048 -0.004584
0.816259 0.039184 -0.005035
0.856434 0.038201 -0.005516
0.898534 0.037086 -0.006029
0.942668 0.035830 -0.006578
0.989215 0.034400 -0.007167
1.039047 0.032718 -0.007813
1.092747 0.030731 -0.008525
1.150823 0.028393 -0.009313
1.213943 0.025646 -0.010189
1.282899 0.022421 -0.011167
1.358675 0.018627 -0.012264
1.442562 0.014153 -0.013504
1.536217 0.008850 -0.014916
1.641872 0.002523 -0.016541
1.762700 -0.005111 -0.018435
1.901061 -0.014258 -0.020641
2.057732 -0.024989 -0.023172
0.010123 0.050127 0.002959
0.014252 0.049960 0.002900
0.018156 0.049811 0.002845
0.021997 0.049673 0.002792
0.026399 0.049526 0.002733
0.031426 0.049371 0.002668
0.037025 0.049215 0.002597
0.043157 0.049075 0.002523
0.049781 0.048949 0.002446
0.056926 0.048830 0.002365
0.064738 0.048825 0.002285
0.073177 0.048865 0.002203
0.082212 0.048910 0.002117
0.091859 0.048957 0.002027
0.102134 0.049002 0.001933
0.113046 0.049045 0.001834
0.124598 0.049082 0.001731
0.136760 0.049116 0.001624
0.149501 0.049148 0.001513
0.162807 0.049179 0.001399
0.176663 0.049211 0.001281
0.191047 0.049244 0.001159
0.205934 0.049283 0.001034
0.221300 0.049328 0.000905
0.237116 0.049384 0.000774
0.253366 0.049451 0.000641
0.270032 0.049530 0.000507
0.287098 0.049626 0.000371
0.304667 0.049727 0.000232
0.322895 0.049815 0.000085
0.341710 0.049860 -0.000071
0.361111 0.049860 -0.000235
0.381321 0.049841 -0.000410
0.402378 0.049798 -0.000596
0.424317 0.049728 -0.000793
0.447175 0.049628 -0.001003
0.470998 0.049494 -0.001227
0.495834 0.049319 -0.001465
0.521731 0.049100 -0.001720
0.548744 0.048831 -0.001991
0.576939 0.048506 -0.002281
0.606381 0.048119 -0.002590
0.637131 0.047662 -0.002920
0.669266 0.047128 -0.003273
0.702860 0.046507 -0.003648
0.737998 0.045792 -0.004049
0.774755 0.044975 -0.004476
0.813232 0.044049 -0.004932
0.853524 0.043003 -0.005418
0.895741 0.041827 -0.005937
0.940004 0.040508 -0.006489
0.986728 0.039012 -0.007084
1.036765 0.037263 -0.007735
1.090683 0.035208 -0.008452
1.149014 0.032800 -0.009246
1.212414 0.029983 -0.010128
1.281675 0.026685 -0.011113
1.357816 0.022814 -0.012218
1.442122 0.018259 -0.013467
1.536263 0.012870 -0.014889
1.642527 0.006446 -0.016526
1.764089 -0.001294 -0.018434
1.903185 -0.010548 -0.020654
2.060667 -0.021392 -0.023200
0.011407 0.056748 0.003281
0.015263 0.056593 0.003225
0.018939 0.056457 0.003173
0.022581 0.056334 0.003122
0.026781 0.056202 0.003065
0.031607 0.056061 0.003000
0.037010 0.055919 0.002930
0.042966 0.055794 0.002855
0.049538 0.055772 0.002781
0.056682 0.055761 0.002702
0.064397 0.055762 0.002618
0.072678 0.055772 0.002530
0.081534 0.055789 0.002438
0.090978 0.055811 0.002341
0.101024 0.055834 0.002240
0.111690 0.055856 0.002134
0.122973 0.055876 0.002023
0.134845 0.055893 0.001909
0.147288 0.055911 0.001790
0.160295 0.055927 0.001668
0.173856 0.055944 0.001543
0.187956 0.055960 0.001415
0.202584 0.055979 0.001285
0.217721 0.056001 0.001153
0.233339 0.056030 0.001019
0.249416 0.056066 0.000882
0.265932 0.056113 0.000744
0.282880 0.056172 0.000604
0.300369 0.056233 0.000460
0.318514 0.056269 0.000307
0.337262 0.056258 0.000146
0.356659 0.056205 -0.000024
0.376877 0.056132 -0.000205
0.397951 0.056035 -0.000397
0.419916 0.055909 -0.000601
0.442810 0.055754 -0.000817
0.466679 0.055562 -0.001047
0.491568 0.055330 -0.001292
0.517525 0.055053 -0.001553
0.544608 0.054726 -0.001831
0.572881 0.054340 -0.002127
0.602408 0.053889 -0.002442
0.633255 0.053366 -0.002778
0.665490 0.052765 -0.003135
0.699188 0.052079 -0.003517
0.734437 0.051297 -0.003923
0.771314 0.050415 -0.004356
0.809911 0.049422 -0.004817
0.850337 0.048309 -0.005308
0.892684 0.047068 -0.005832
0.937076 0.045686 -0.006389
0.983991 0.044121 -0.006989
1.034254 0.042300 -0.007646
1.088427 0.040171 -0.008369
1.147036 0.037690 -0.009170
1.210749 0.034797 -0.010060
1.280365 0.031418 -0.011052
1.356914 0.027464 -0.012166
1.441692 0.022819 -0.013425
1.536392 0.017335 -0.014858
1.643345 0.010805 -0.016509
1.765748 0.002944 -0.018433
1.905637 -0.006423 -0.020668
2.064069 -0.017393 -0.023232
0.012712 0.063795 0.003590
0.016328 0.063659 0.003537
0.019803 0.063554 0.003488
0.023278 0.063489 0.003441
0.027314 0.063423 0.003388
0.031983 0.063357 0.003328
0.037255 0.063296 0.003261
0.043104 0.063242 0.003189
0.049547 0.063195 0.003111
0.056567 0.063157 0.003028
0.064147 0.063129 0.002940
0.072289 0.063110 0.002847
0.080986 0.063101 0.002749
0.090252 0.063098 0.002646
0.100099 0.063098 0.002538
0.110538 0.063100 0.002426
0.121567 0.063102 0.002311
0.133162 0.063105 0.002192
0.145318 0.063108 0.002070
0.158028 0.063111 0.001945
0.171290 0.063114 0.001817
0.185096 0.063117 0.001687
0.199430 0.063122 0.001554
0.214287 0.063129 0.001419
0.229651 0.063138 0.001281
0.245501 0.063153 0.001141
0.261818 0.063175 0.000999
0.278605 0.063203 0.000855
0.295983 0.063230 0.000705
0.314006 0.063219 0.000547
0.332647 0.063154 0.000380
0.352014 0.063053 0.000203
0.372217 0.062931 0.000016
0.393287 0.062783 -0.000183
0.415261 0.062605 -0.000393
0.438181 0.062395 -0.000616
0.462080 0.062148 -0.000853
0.487011 0.061860 -0.001105
0.513026 0.061522 -0.001372
0.540178 0.061130 -0.001655
0.568533 0.060678 -0.001957
0.598148 0.060160 -0.002278
0.629087 0.059571 -0.002620
0.661425 0.058903 -0.002984
0.695235 0.058149 -0.003371
0.730600 0.057300 -0.003783
0.767601 0.056350 -0.004222
0.806322 0.055291 -0.004689
0.846877 0.054112 -0.005186
0.889370 0.052802 -0.005714
0.933914 0.051352 -0.006276
0.981035 0.049715 -0.006882
1.031550 0.047819 -0.007545
1.085997 0.045614 -0.008276
1.144912 0.043054 -0.009085
1.208975 0.040078 -0.009982
1.278988 0.036614 -0.010984
1.355983 0.032571 -0.012107
1.441292 0.027831 -0.013377
1.536629 0.022241 -0.014824
1.644342 0.015597 -0.016490
1.767717 0.007602 -0.018433
1.908489 -0.001890 -0.020685
2.067973 -0.012999 -0.023269
0.014089 0.071612 0.003902
0.017516 0.071529 0.003854
0.020827 0.071455 0.003807
0.024144 0.071387 0.003761
0.028012 0.071315 0.003709
0.032505 0.071241 0.003649
0.037605 0.071168 0.003582
0.043317 0.071096 0.003509
0.049629 0.071030 0.003429
0.056524 0.070968 0.003344
0.063983 0.070915 0.003253
0.071991 0.070870 0.003157
0.080551 0.070835 0.003056
0.089661 0.070807 0.002951
0.099330 0.070785 0.002842
0.109567 0.070766 0.002728
0.120363 0.070751 0.002610
0.131703 0.070738 0.002489
0.143585 0.070727 0.002364
0.156011 0.070718 0.002237
0.168981 0.070709 0.002107
0.182488 0.070701 0.001974
0.196528 0.070694 0.001838
0.211090 0.070688 0.001700
0.226164 0.070685 0.001559
0.241740 0.070685 0.001415
0.257806 0.070690 0.001269
0.274385 0.070697 0.001120
0.291593 0.070691 0.000965
0.309465 0.070637 0.000801
0.327959 0.070521 0.000628
0.347260 0.070379 0.000444
0.367415 0.070212 0.000251
0.388459 0.070016 0.000046
0.410422 0.069788 -0.000171
0.433346 0.069523 -0.000401
0.457272 0.069218 -0.000644
0.482241 0.068867 -0.000901
0.508307 0.068468 -0.001175
0.535518 0.068013 -0.001465
0.563942 0.067496 -0.001773
0.593637 0.066914 -0.002100
0.624670 0.066258 -0.002448
0.657108 0.065523 -0.002818
0.691025 0.064701 -0.003212
0.726506 0.063785 -0.003631
0.763634 0.062767 -0.004075
0.802493 0.061640 -0.004548
0.843191 0.060391 -0.005050
0.885829 0.059014 -0.005584
0.930525 0.057496 -0.006151
0.977881 0.055783 -0.006764
1.028667 0.053809 -0.007434
1.083412 0.051525 -0.008173
1.142668 0.048881 -0.008990
1.207115 0.045818 -0.009896
1.277564 0.042264 -0.010908
1.355056 0.038125 -0.012042
1.440948 0.033284 -0.013325
1.536990 0.027582 -0.014786
1.645561 0.020812 -0.016469
1.770006 0.012674 -0.018432
1.911765 0.003045 -0.020704
2.072424 -0.008215 -0.023311
0.015461 0.079898 0.004218
0.018707 0.079816 0.004172
0.021857 0.079742 0.004127
0.025023 0.079673 0.004083
0.028732 0.079597 0.004032
0.033064 0.079516 0.003974
0.038024 0.079432 0.003907
0.043605 0.079347 0.003834
0.049785 0.079264 0.003754
0.056553 0.079184 0.003668
0.063890 0.079110 0.003576
0.071779 0.079042 0.003479
0.080207 0.078982 0.003376
0.089181 0.078931 0.003269
0.098695 0.078886 0.003157
0.108753 0.078847 0.003041
0.119338 0.078813 0.002921
0.130442 0.078785 0.002797
0.142072 0.078760 0.002671
0.154232 0.078738 0.002541
0.166923 0.078718 0.002407
0.180141 0.078700 0.002271
0.193888 0.078682 0.002133
0.208154 0.078667 0.001991
0.222934 0.078652 0.001846
0.238220 0.078641 0.001699
0.254003 0.078632 0.001550
0.270334 0.078622 0.001396
0.287298 0.078581 0.001236
0.304950 0.078483 0.001066
0.323303 0.078327 0.000887
0.342507 0.078144 0.000698
0.362586 0.077933 0.000499
0.383575 0.077689 0.000288
0.405504 0.077410 0.000065
0.428413 0.077092 -0.000170
0.452343 0.076731 -0.000420
0.477326 0.076324 -0.000684
0.503421 0.075865 -0.000963
0.530679 0.075350 -0.001260
0.559163 0.074772 -0.001575
0.588933 0.074126 -0.001909
0.620053 0.073406 -0.002264
0.652584 0.072606 -0.002640
0.686604 0.071719 -0.003040
0.722200 0.070736 -0.003464
0.759451 0.069651 -0.003915
0.798444 0.068454 -0.004393
0.839290 0.067138 -0.004901
0.882082 0.065690 -0.005440
0.926949 0.064102 -0.006014
0.974558 0.062312 -0.006634
1.025637 0.060257 -0.007313
1.080704 0.057891 -0.008060
1.140331 0.055161 -0.008886
1.205193 0.052009 -0.009802
1.276118 0.048358 -0.010825
1.354165 0.044118 -0.011972
1.440713 0.039166 -0.013268
1.537527 0.033344 -0.014745
1.647036 0.026441 -0.016446
1.772635 0.018152 -0.018433
1.915515 0.008373 -0.020726
2.077473 -0.003052 -0.023357
0.016797 0.088565 0.004542
0.019876 0.088485 0.004498
0.022877 0.088412 0.004455
0.025908 0.088341 0.004412
0.029478 0.088263 0.004363
0.033682 0.088177 0.004305
0.038513 0.088085 0.004239
0.043963 0.087989 0.004166
0.050016 0.087892 0.004086
0.056656 0.087796 0.003999
0.063867 0.087704 0.003906
0.071638 0.087616 0.003808
0.079951 0.087534 0.003703
0.088795 0.087460 0.003594
0.098173 0.087393 0.003480
0.108067 0.087335 0.003362
0.118462 0.087283 0.003239
0.129358 0.087237 0.003113
0.140760 0.087198 0.002984
0.152673 0.087162 0.002852
0.165102 0.087130 0.002716
0.178048 0.087100 0.002577
0.191513 0.087071 0.002435
0.205491 0.087045 0.002291
0.219982 0.087019 0.002143
0.234978 0.086994 0.001993
0.250478 0.086969 0.001840
0.266537 0.086934 0.001682
0.283244 0.086854 0.001517
0.300627 0.086705 0.001343
0.318814 0.086517 0.001158
0.337878 0.086300 0.000964
0.357842 0.086050 0.000759
0.378737 0.085764 0.000543
0.400600 0.085440 0.000314
0.423461 0.085075 0.000073
